; G-Code generated by Simplify3D(R) Version 4.0.0
; Nov 24, 2019 at 1:03:33 PM
; Settings Summary
;   processName,Process1
;   applyToModels,Bearing Test
;   profileName,E3_cat_FFF (modified)
;   profileVersion,2019-11-02 13:49:25
;   baseProfile,Default(2) (modified)
;   printMaterial,
;   printQuality,
;   printExtruders,
;   extruderName,Primary Extruder
;   extruderToolheadNumber,0
;   extruderDiameter,0.4
;   extruderAutoWidth,0
;   extruderWidth,0.4
;   extrusionMultiplier,1
;   extruderUseRetract,1
;   extruderRetractionDistance,10
;   extruderExtraRestartDistance,0
;   extruderRetractionZLift,0.3
;   extruderRetractionSpeed,6000
;   extruderUseCoasting,0
;   extruderCoastingDistance,2
;   extruderUseWipe,0
;   extruderWipeDistance,5
;   primaryExtruder,0
;   layerHeight,0.1
;   topSolidLayers,12
;   bottomSolidLayers,12
;   perimeterOutlines,3
;   printPerimetersInsideOut,1
;   startPointOption,3
;   startPointOriginX,100
;   startPointOriginY,150
;   sequentialIslands,1
;   spiralVaseMode,0
;   firstLayerHeightPercentage,90
;   firstLayerWidthPercentage,100
;   firstLayerUnderspeed,0.5
;   useRaft,0
;   raftExtruder,0
;   raftTopLayers,3
;   raftBaseLayers,2
;   raftOffset,3
;   raftSeparationDistance,0.14
;   raftTopInfill,100
;   aboveRaftSpeedMultiplier,0.3
;   useSkirt,1
;   skirtExtruder,0
;   skirtLayers,1
;   skirtOutlines,3
;   skirtOffset,5.2
;   usePrimePillar,0
;   primePillarExtruder,999
;   primePillarWidth,20
;   primePillarLocation,7
;   primePillarSpeedMultiplier,1
;   useOozeShield,0
;   oozeShieldExtruder,999
;   oozeShieldOffset,2
;   oozeShieldOutlines,1
;   oozeShieldSidewallShape,1
;   oozeShieldSidewallAngle,30
;   oozeShieldSpeedMultiplier,1
;   infillExtruder,0
;   internalInfillPattern,Fast Honeycomb
;   externalInfillPattern,Rectilinear
;   infillPercentage,35
;   outlineOverlapPercentage,30
;   infillExtrusionWidthPercentage,100
;   minInfillLength,5
;   infillLayerInterval,1
;   internalInfillAngles,0
;   overlapInternalInfillAngles,0
;   externalInfillAngles,45,-45
;   generateSupport,1
;   supportExtruder,0
;   supportInfillPercentage,40
;   supportExtraInflation,0
;   supportBaseLayers,0
;   denseSupportExtruder,0
;   denseSupportLayers,0
;   denseSupportInfillPercentage,70
;   supportLayerInterval,1
;   supportHorizontalPartOffset,0.3
;   supportUpperSeparationLayers,1
;   supportLowerSeparationLayers,1
;   supportType,0
;   supportGridSpacing,4
;   maxOverhangAngle,45
;   supportAngles,0
;   temperatureName,Primary Extruder,bed
;   temperatureNumber,0,0
;   temperatureSetpointCount,1,1
;   temperatureSetpointLayers,1,1
;   temperatureSetpointTemperatures,205,65
;   temperatureStabilizeAtStartup,1,1
;   temperatureHeatedBed,0,1
;   temperatureRelayBetweenLayers,0,0
;   temperatureRelayBetweenLoops,0,0
;   fanLayers,1,2
;   fanSpeeds,0,100
;   blipFanToFullPower,0
;   adjustSpeedForCooling,1
;   minSpeedLayerTime,15
;   minCoolingSpeedSlowdown,20
;   increaseFanForCooling,0
;   minFanLayerTime,45
;   maxCoolingFanSpeed,100
;   increaseFanForBridging,0
;   bridgingFanSpeed,100
;   use5D,1
;   relativeEdistances,0
;   allowEaxisZeroing,1
;   independentExtruderAxes,0
;   includeM10123,0
;   stickySupport,1
;   applyToolheadOffsets,0
;   gcodeXoffset,0
;   gcodeYoffset,0
;   gcodeZoffset,0
;   overrideMachineDefinition,1
;   machineTypeOverride,0
;   strokeXoverride,220
;   strokeYoverride,220
;   strokeZoverride,250
;   originOffsetXoverride,0
;   originOffsetYoverride,0
;   originOffsetZoverride,0
;   homeXdirOverride,-1
;   homeYdirOverride,-1
;   homeZdirOverride,-1
;   flipXoverride,1
;   flipYoverride,-1
;   flipZoverride,1
;   toolheadOffsets,0,0|0,0|0,0|0,0|0,0|0,0
;   overrideFirmwareConfiguration,0
;   firmwareTypeOverride,RepRap (Marlin/Repetier/Sprinter)
;   GPXconfigOverride,r2
;   baudRateOverride,115200
;   overridePrinterModels,0
;   printerModelsOverride
;   startingGcode,G28 ; home all axes,G29
;   layerChangeGcode,
;   retractionGcode,
;   toolChangeGcode,
;   endingGcode,M104 S0 ; turn off extruder,M140 S0 ; turn off bed,M84 ; disable motors,G28 X0 Y0
;   exportFileFormat,gcode
;   celebration,0
;   celebrationSong,Funky Town
;   postProcessing,
;   defaultSpeed,4200
;   outlineUnderspeed,0.5
;   solidInfillUnderspeed,0.8
;   supportUnderspeed,0.8
;   rapidXYspeed,4800
;   rapidZspeed,1002
;   minBridgingArea,50
;   bridgingExtraInflation,0
;   bridgingExtrusionMultiplier,1
;   bridgingSpeedMultiplier,1
;   useFixedBridgingAngle,0
;   fixedBridgingAngle,0
;   applyBridgingToPerimeters,0
;   filamentDiameters,1.75|1.75|1.75|1.75|1.75|1.75
;   filamentPricesPerKg,46|46|46|46|46|46
;   filamentDensities,1.25|1.25|1.25|1.25|1.25|1.25
;   useMinPrintHeight,0
;   minPrintHeight,0
;   useMaxPrintHeight,0
;   maxPrintHeight,0
;   useDiaphragm,0
;   diaphragmLayerInterval,20
;   robustSlicing,1
;   mergeAllIntoSolid,0
;   onlyRetractWhenCrossingOutline,1
;   retractBetweenLayers,1
;   useRetractionMinTravel,0
;   retractionMinTravel,3
;   retractWhileWiping,0
;   onlyWipeOutlines,1
;   avoidCrossingOutline,1
;   maxMovementDetourFactor,3
;   toolChangeRetractionDistance,12
;   toolChangeExtraRestartDistance,-0.5
;   toolChangeRetractionSpeed,600
;   externalThinWallType,0
;   internalThinWallType,2
;   thinWallAllowedOverlapPercentage,10
;   singleExtrusionMinLength,1
;   singleExtrusionMinPrintingWidthPercentage,50
;   singleExtrusionMaxPrintingWidthPercentage,200
;   singleExtrusionEndpointExtension,0.2
;   horizontalSizeCompensation,0
G90
M82
M106 S0
M140 S65
M190 S65
M104 S205 T0
M109 S205 T0
G28 ; home all axes
G29
G92 E0
G1 E-10.0000 F6000
G1 Z0.390 F1002
; process Process1
; layer 1, Z = 0.090
T0
; tool H0.100 W0.400
; skirt
G1 X96.886 Y96.669 F4800
G1 Z0.090 F1002
G1 E0.0000 F1800
G92 E0
G1 X96.904 Y96.651 E0.0004 F2100
G1 X97.119 Y96.443 E0.0054
G1 X97.138 Y96.426 E0.0058
G1 X98.332 Y95.388 E0.0321
G1 X98.349 Y95.374 E0.0325
G1 X98.544 Y95.219 E0.0366
G1 X98.561 Y95.206 E0.0370
G1 X99.448 Y94.562 E0.0552
G1 X99.462 Y94.552 E0.0555
G1 X99.627 Y94.440 E0.0588
G1 X99.642 Y94.431 E0.0591
G1 X100.572 Y93.850 E0.0774
G1 X100.590 Y93.839 E0.0777
G1 X100.807 Y93.716 E0.0819
G1 X100.826 Y93.706 E0.0822
G1 X102.214 Y92.999 E0.1081
G1 X102.233 Y92.990 E0.1085
G1 X102.460 Y92.887 E0.1126
G1 X102.480 Y92.878 E0.1130
G1 X103.496 Y92.467 E0.1312
G1 X103.513 Y92.461 E0.1315
G1 X103.700 Y92.393 E0.1348
G1 X103.716 Y92.387 E0.1351
G1 X104.735 Y92.056 E0.1529
G1 X104.752 Y92.051 E0.1532
G1 X104.943 Y91.996 E0.1565
G1 X104.960 Y91.992 E0.1568
G1 X106.024 Y91.727 E0.1750
G1 X106.045 Y91.722 E0.1754
G1 X106.289 Y91.672 E0.1795
G1 X106.310 Y91.669 E0.1799
G1 X107.873 Y91.421 E0.2062
G1 X107.899 Y91.418 E0.2067
G1 X108.196 Y91.387 E0.2116
G1 X108.222 Y91.385 E0.2121
G1 X109.777 Y91.303 E0.2379
G1 X109.794 Y91.303 E0.2382
G1 X109.993 Y91.299 E0.2415
G1 X110.011 Y91.299 E0.2418
G1 X110.621 Y91.310 E0.2520
G1 X110.634 Y91.310 E0.2522
G1 X110.783 Y91.317 E0.2547
G1 X110.796 Y91.318 E0.2549
G1 X111.865 Y91.392 E0.2727
G1 X111.887 Y91.394 E0.2731
G1 X112.134 Y91.423 E0.2772
G1 X112.156 Y91.426 E0.2776
G1 X113.718 Y91.673 E0.3039
G1 X113.744 Y91.678 E0.3043
G1 X114.036 Y91.740 E0.3093
G1 X114.061 Y91.746 E0.3097
G1 X115.613 Y92.162 E0.3365
G1 X115.639 Y92.170 E0.3369
G1 X115.922 Y92.262 E0.3419
G1 X115.947 Y92.271 E0.3423
G1 X117.447 Y92.847 E0.3690
G1 X117.471 Y92.857 E0.3694
G1 X117.744 Y92.978 E0.3744
G1 X117.768 Y92.990 E0.3748
G1 X119.177 Y93.708 E0.4012
G1 X119.196 Y93.718 E0.4015
G1 X119.413 Y93.841 E0.4057
G1 X119.432 Y93.852 E0.4060
G1 X120.383 Y94.446 E0.4247
G1 X120.401 Y94.458 E0.4250
G1 X120.606 Y94.599 E0.4292
G1 X120.623 Y94.612 E0.4295
G1 X121.887 Y95.564 E0.4558
G1 X121.907 Y95.580 E0.4563
G1 X122.136 Y95.772 E0.4612
G1 X122.156 Y95.790 E0.4617
G1 X123.331 Y96.886 E0.4884
G1 X123.349 Y96.904 E0.4888
G1 X123.557 Y97.119 E0.4938
G1 X123.574 Y97.138 E0.4942
G1 X124.628 Y98.351 E0.5210
G1 X124.645 Y98.371 E0.5214
G1 X124.829 Y98.606 E0.5264
G1 X124.844 Y98.627 E0.5268
G1 X125.752 Y99.923 E0.5531
G1 X125.764 Y99.942 E0.5535
G1 X125.897 Y100.151 E0.5576
G1 X125.909 Y100.170 E0.5580
G1 X126.457 Y101.120 E0.5762
G1 X126.465 Y101.135 E0.5765
G1 X126.559 Y101.310 E0.5798
G1 X126.567 Y101.326 E0.5801
G1 X127.036 Y102.289 E0.5979
G1 X127.044 Y102.305 E0.5982
G1 X127.125 Y102.487 E0.6015
G1 X127.131 Y102.503 E0.6018
G1 X127.533 Y103.496 E0.6196
G1 X127.539 Y103.513 E0.6199
G1 X127.607 Y103.700 E0.6232
G1 X127.613 Y103.716 E0.6235
G1 X127.951 Y104.759 E0.6417
G1 X127.958 Y104.780 E0.6421
G1 X128.024 Y105.019 E0.6462
G1 X128.029 Y105.041 E0.6466
G1 X128.379 Y106.558 E0.6725
G1 X128.384 Y106.579 E0.6728
G1 X128.429 Y106.824 E0.6770
G1 X128.433 Y106.845 E0.6773
G1 X128.585 Y107.931 E0.6956
G1 X128.587 Y107.948 E0.6959
G1 X128.608 Y108.146 E0.6992
G1 X128.610 Y108.164 E0.6995
G1 X128.684 Y109.233 E0.7173
G1 X128.685 Y109.250 E0.7176
G1 X128.692 Y109.449 E0.7209
G1 X128.692 Y109.466 E0.7212
G1 X128.692 Y110.538 E0.7390
G1 X128.692 Y110.555 E0.7393
G1 X128.685 Y110.754 E0.7426
G1 X128.684 Y110.771 E0.7429
G1 X128.608 Y111.865 E0.7611
G1 X128.606 Y111.887 E0.7615
G1 X128.577 Y112.134 E0.7656
G1 X128.574 Y112.156 E0.7660
G1 X128.327 Y113.718 E0.7923
G1 X128.322 Y113.744 E0.7927
G1 X128.260 Y114.036 E0.7977
G1 X128.254 Y114.061 E0.7981
G1 X127.838 Y115.613 E0.8249
G1 X127.830 Y115.639 E0.8253
G1 X127.738 Y115.922 E0.8303
G1 X127.729 Y115.947 E0.8307
G1 X127.153 Y117.447 E0.8574
G1 X127.143 Y117.471 E0.8578
G1 X127.022 Y117.744 E0.8628
G1 X127.010 Y117.768 E0.8632
G1 X126.292 Y119.177 E0.8896
G1 X126.282 Y119.196 E0.8899
G1 X126.159 Y119.413 E0.8941
G1 X126.148 Y119.432 E0.8944
G1 X125.554 Y120.383 E0.9131
G1 X125.542 Y120.401 E0.9134
G1 X125.401 Y120.606 E0.9176
G1 X125.388 Y120.623 E0.9179
G1 X124.436 Y121.887 E0.9442
G1 X124.420 Y121.907 E0.9447
G1 X124.228 Y122.136 E0.9496
G1 X124.210 Y122.156 E0.9501
G1 X123.114 Y123.331 E0.9768
G1 X123.096 Y123.349 E0.9772
G1 X122.881 Y123.557 E0.9822
G1 X122.862 Y123.574 E0.9826
G1 X121.649 Y124.628 E1.0093
G1 X121.629 Y124.645 E1.0098
G1 X121.394 Y124.829 E1.0147
G1 X121.373 Y124.844 E1.0152
G1 X120.077 Y125.752 E1.0415
G1 X120.058 Y125.764 E1.0419
G1 X119.849 Y125.897 E1.0460
G1 X119.830 Y125.909 E1.0464
G1 X118.880 Y126.457 E1.0646
G1 X118.865 Y126.465 E1.0649
G1 X118.690 Y126.559 E1.0682
G1 X118.674 Y126.567 E1.0685
G1 X117.711 Y127.036 E1.0863
G1 X117.695 Y127.044 E1.0866
G1 X117.513 Y127.125 E1.0899
G1 X117.497 Y127.131 E1.0902
G1 X116.504 Y127.533 E1.1080
G1 X116.487 Y127.539 E1.1083
G1 X116.300 Y127.607 E1.1116
G1 X116.284 Y127.613 E1.1119
G1 X115.241 Y127.951 E1.1301
G1 X115.220 Y127.958 E1.1305
G1 X114.981 Y128.024 E1.1346
G1 X114.959 Y128.029 E1.1350
G1 X113.442 Y128.379 E1.1609
G1 X113.421 Y128.384 E1.1612
G1 X113.176 Y128.429 E1.1654
G1 X113.155 Y128.433 E1.1657
G1 X112.069 Y128.585 E1.1840
G1 X112.052 Y128.587 E1.1843
G1 X111.854 Y128.608 E1.1876
G1 X111.836 Y128.610 E1.1879
G1 X110.767 Y128.684 E1.2057
G1 X110.750 Y128.685 E1.2060
G1 X110.551 Y128.692 E1.2093
G1 X110.534 Y128.692 E1.2096
G1 X109.462 Y128.692 E1.2274
G1 X109.445 Y128.692 E1.2277
G1 X109.246 Y128.685 E1.2310
G1 X109.229 Y128.684 E1.2313
G1 X108.135 Y128.608 E1.2495
G1 X108.113 Y128.606 E1.2499
G1 X107.866 Y128.577 E1.2540
G1 X107.844 Y128.574 E1.2544
G1 X106.282 Y128.327 E1.2807
G1 X106.256 Y128.322 E1.2811
G1 X105.964 Y128.260 E1.2861
G1 X105.939 Y128.254 E1.2865
G1 X104.387 Y127.838 E1.3132
G1 X104.361 Y127.830 E1.3137
G1 X104.078 Y127.738 E1.3186
G1 X104.053 Y127.729 E1.3191
G1 X102.553 Y127.153 E1.3458
G1 X102.529 Y127.143 E1.3462
G1 X102.256 Y127.022 E1.3512
G1 X102.232 Y127.010 E1.3516
G1 X100.823 Y126.292 E1.3780
G1 X100.804 Y126.282 E1.3783
G1 X100.587 Y126.159 E1.3824
G1 X100.568 Y126.148 E1.3828
G1 X99.617 Y125.554 E1.4015
G1 X99.599 Y125.542 E1.4018
G1 X99.394 Y125.401 E1.4060
G1 X99.377 Y125.388 E1.4063
G1 X98.113 Y124.436 E1.4326
G1 X98.093 Y124.420 E1.4331
G1 X97.864 Y124.228 E1.4380
G1 X97.844 Y124.210 E1.4385
G1 X96.669 Y123.114 E1.4652
G1 X96.651 Y123.096 E1.4656
G1 X96.443 Y122.881 E1.4706
G1 X96.426 Y122.862 E1.4710
G1 X95.372 Y121.649 E1.4977
G1 X95.355 Y121.629 E1.4982
G1 X95.171 Y121.394 E1.5031
G1 X95.156 Y121.373 E1.5036
G1 X94.248 Y120.077 E1.5299
G1 X94.236 Y120.058 E1.5303
G1 X94.103 Y119.849 E1.5344
G1 X94.091 Y119.830 E1.5348
G1 X93.543 Y118.880 E1.5530
G1 X93.535 Y118.865 E1.5533
G1 X93.441 Y118.690 E1.5566
G1 X93.433 Y118.674 E1.5569
G1 X92.964 Y117.711 E1.5747
G1 X92.956 Y117.695 E1.5750
G1 X92.875 Y117.513 E1.5783
G1 X92.869 Y117.497 E1.5786
G1 X92.467 Y116.504 E1.5964
G1 X92.461 Y116.487 E1.5967
G1 X92.393 Y116.300 E1.6000
G1 X92.387 Y116.284 E1.6003
G1 X92.049 Y115.241 E1.6185
G1 X92.042 Y115.220 E1.6189
G1 X91.976 Y114.981 E1.6230
G1 X91.971 Y114.959 E1.6234
G1 X91.621 Y113.442 E1.6493
G1 X91.616 Y113.421 E1.6496
G1 X91.571 Y113.176 E1.6538
G1 X91.567 Y113.155 E1.6541
G1 X91.415 Y112.069 E1.6724
G1 X91.413 Y112.052 E1.6727
G1 X91.392 Y111.854 E1.6760
G1 X91.390 Y111.836 E1.6763
G1 X91.316 Y110.767 E1.6941
G1 X91.315 Y110.750 E1.6944
G1 X91.308 Y110.551 E1.6977
G1 X91.308 Y110.534 E1.6980
G1 X91.308 Y109.462 E1.7158
G1 X91.308 Y109.445 E1.7161
G1 X91.315 Y109.246 E1.7194
G1 X91.316 Y109.229 E1.7197
G1 X91.392 Y108.135 E1.7379
G1 X91.394 Y108.113 E1.7383
G1 X91.423 Y107.866 E1.7424
G1 X91.426 Y107.844 E1.7428
G1 X91.673 Y106.282 E1.7691
G1 X91.678 Y106.256 E1.7695
G1 X91.740 Y105.964 E1.7745
G1 X91.746 Y105.939 E1.7749
G1 X92.162 Y104.387 E1.8016
G1 X92.170 Y104.361 E1.8021
G1 X92.262 Y104.078 E1.8070
G1 X92.271 Y104.053 E1.8075
G1 X92.847 Y102.553 E1.8342
G1 X92.857 Y102.529 E1.8346
G1 X92.978 Y102.256 E1.8396
G1 X92.990 Y102.232 E1.8400
G1 X93.708 Y100.823 E1.8663
G1 X93.718 Y100.804 E1.8667
G1 X93.841 Y100.587 E1.8708
G1 X93.852 Y100.568 E1.8712
G1 X94.446 Y99.617 E1.8899
G1 X94.458 Y99.599 E1.8902
G1 X94.599 Y99.394 E1.8944
G1 X94.612 Y99.377 E1.8947
G1 X95.564 Y98.113 E1.9210
G1 X95.580 Y98.093 E1.9215
G1 X95.772 Y97.864 E1.9264
G1 X95.790 Y97.844 E1.9269
G1 X96.886 Y96.669 E1.9536
G1 X97.175 Y96.946 F4800
G92 E0
G1 X97.186 Y96.935 E0.0003 F2100
G1 X97.393 Y96.735 E0.0051
G1 X97.404 Y96.724 E0.0053
G1 X98.591 Y95.693 E0.0315
G1 X98.601 Y95.684 E0.0317
G1 X98.789 Y95.535 E0.0357
G1 X98.800 Y95.527 E0.0359
G1 X99.680 Y94.887 E0.0540
G1 X99.689 Y94.881 E0.0542
G1 X99.848 Y94.774 E0.0574
G1 X99.857 Y94.768 E0.0575
G1 X100.780 Y94.191 E0.0756
G1 X100.791 Y94.185 E0.0759
G1 X101.000 Y94.067 E0.0798
G1 X101.012 Y94.060 E0.0801
G1 X102.391 Y93.358 E0.1058
G1 X102.403 Y93.352 E0.1060
G1 X102.622 Y93.252 E0.1100
G1 X102.634 Y93.247 E0.1102
G1 X103.643 Y92.840 E0.1283
G1 X103.653 Y92.836 E0.1285
G1 X103.833 Y92.770 E0.1317
G1 X103.843 Y92.767 E0.1319
G1 X104.855 Y92.438 E0.1496
G1 X104.865 Y92.435 E0.1498
G1 X105.050 Y92.382 E0.1530
G1 X105.060 Y92.379 E0.1531
G1 X106.116 Y92.116 E0.1712
G1 X106.129 Y92.113 E0.1714
G1 X106.364 Y92.065 E0.1754
G1 X106.377 Y92.063 E0.1757
G1 X107.930 Y91.817 E0.2018
G1 X107.946 Y91.815 E0.2021
G1 X108.232 Y91.785 E0.2069
G1 X108.248 Y91.784 E0.2071
G1 X109.794 Y91.703 E0.2329
G1 X109.805 Y91.703 E0.2330
G1 X109.997 Y91.699 E0.2362
G1 X110.007 Y91.699 E0.2364
G1 X110.611 Y91.710 E0.2465
G1 X110.619 Y91.710 E0.2466
G1 X110.763 Y91.716 E0.2490
G1 X110.771 Y91.717 E0.2491
G1 X111.833 Y91.791 E0.2668
G1 X111.846 Y91.792 E0.2670
G1 X112.084 Y91.820 E0.2710
G1 X112.097 Y91.821 E0.2712
G1 X113.650 Y92.067 E0.2974
G1 X113.666 Y92.070 E0.2977
G1 X113.948 Y92.130 E0.3024
G1 X113.963 Y92.134 E0.3027
G1 X115.505 Y92.547 E0.3293
G1 X115.520 Y92.552 E0.3295
G1 X115.794 Y92.641 E0.3343
G1 X115.809 Y92.646 E0.3346
G1 X117.299 Y93.218 E0.3611
G1 X117.313 Y93.224 E0.3614
G1 X117.577 Y93.341 E0.3662
G1 X117.591 Y93.348 E0.3664
G1 X118.992 Y94.062 E0.3926
G1 X119.003 Y94.068 E0.3928
G1 X119.212 Y94.187 E0.3968
G1 X119.223 Y94.193 E0.3970
G1 X120.167 Y94.783 E0.4155
G1 X120.178 Y94.790 E0.4157
G1 X120.376 Y94.926 E0.4197
G1 X120.386 Y94.934 E0.4199
G1 X121.642 Y95.880 E0.4461
G1 X121.654 Y95.890 E0.4463
G1 X121.875 Y96.075 E0.4511
G1 X121.887 Y96.086 E0.4514
G1 X123.054 Y97.175 E0.4779
G1 X123.065 Y97.186 E0.4782
