; G-Code generated by Simplify3D(R) Version 4.0.0
; Nov 24, 2019 at 3:06:08 PM
; Settings Summary
;   processName,Process1
;   applyToModels,Bearing Test Center
;   profileName,E3_cat_FFF (modified)
;   profileVersion,2019-11-02 13:49:25
;   baseProfile,Default(2) (modified)
;   printMaterial,
;   printQuality,
;   printExtruders,
;   extruderName,Primary Extruder
;   extruderToolheadNumber,0
;   extruderDiameter,0.4
;   extruderAutoWidth,0
;   extruderWidth,0.4
;   extrusionMultiplier,1
;   extruderUseRetract,1
;   extruderRetractionDistance,10
;   extruderExtraRestartDistance,0
;   extruderRetractionZLift,0.3
;   extruderRetractionSpeed,6000
;   extruderUseCoasting,0
;   extruderCoastingDistance,2
;   extruderUseWipe,0
;   extruderWipeDistance,5
;   primaryExtruder,0
;   layerHeight,0.1
;   topSolidLayers,12
;   bottomSolidLayers,12
;   perimeterOutlines,3
;   printPerimetersInsideOut,1
;   startPointOption,3
;   startPointOriginX,100
;   startPointOriginY,150
;   sequentialIslands,1
;   spiralVaseMode,0
;   firstLayerHeightPercentage,90
;   firstLayerWidthPercentage,100
;   firstLayerUnderspeed,0.5
;   useRaft,0
;   raftExtruder,0
;   raftTopLayers,3
;   raftBaseLayers,2
;   raftOffset,3
;   raftSeparationDistance,0.14
;   raftTopInfill,100
;   aboveRaftSpeedMultiplier,0.3
;   useSkirt,1
;   skirtExtruder,0
;   skirtLayers,1
;   skirtOutlines,3
;   skirtOffset,5.2
;   usePrimePillar,0
;   primePillarExtruder,999
;   primePillarWidth,20
;   primePillarLocation,7
;   primePillarSpeedMultiplier,1
;   useOozeShield,0
;   oozeShieldExtruder,999
;   oozeShieldOffset,2
;   oozeShieldOutlines,1
;   oozeShieldSidewallShape,1
;   oozeShieldSidewallAngle,30
;   oozeShieldSpeedMultiplier,1
;   infillExtruder,0
;   internalInfillPattern,Fast Honeycomb
;   externalInfillPattern,Rectilinear
;   infillPercentage,35
;   outlineOverlapPercentage,30
;   infillExtrusionWidthPercentage,100
;   minInfillLength,5
;   infillLayerInterval,1
;   internalInfillAngles,0
;   overlapInternalInfillAngles,0
;   externalInfillAngles,45,-45
;   generateSupport,1
;   supportExtruder,0
;   supportInfillPercentage,40
;   supportExtraInflation,0
;   supportBaseLayers,0
;   denseSupportExtruder,0
;   denseSupportLayers,0
;   denseSupportInfillPercentage,70
;   supportLayerInterval,1
;   supportHorizontalPartOffset,0.3
;   supportUpperSeparationLayers,1
;   supportLowerSeparationLayers,1
;   supportType,0
;   supportGridSpacing,4
;   maxOverhangAngle,45
;   supportAngles,0
;   temperatureName,Primary Extruder,bed
;   temperatureNumber,0,0
;   temperatureSetpointCount,1,1
;   temperatureSetpointLayers,1,1
;   temperatureSetpointTemperatures,205,65
;   temperatureStabilizeAtStartup,1,1
;   temperatureHeatedBed,0,1
;   temperatureRelayBetweenLayers,0,0
;   temperatureRelayBetweenLoops,0,0
;   fanLayers,1,2
;   fanSpeeds,0,100
;   blipFanToFullPower,0
;   adjustSpeedForCooling,1
;   minSpeedLayerTime,15
;   minCoolingSpeedSlowdown,20
;   increaseFanForCooling,0
;   minFanLayerTime,45
;   maxCoolingFanSpeed,100
;   increaseFanForBridging,0
;   bridgingFanSpeed,100
;   use5D,1
;   relativeEdistances,0
;   allowEaxisZeroing,1
;   independentExtruderAxes,0
;   includeM10123,0
;   stickySupport,1
;   applyToolheadOffsets,0
;   gcodeXoffset,0
;   gcodeYoffset,0
;   gcodeZoffset,0
;   overrideMachineDefinition,1
;   machineTypeOverride,0
;   strokeXoverride,220
;   strokeYoverride,220
;   strokeZoverride,250
;   originOffsetXoverride,0
;   originOffsetYoverride,0
;   originOffsetZoverride,0
;   homeXdirOverride,-1
;   homeYdirOverride,-1
;   homeZdirOverride,-1
;   flipXoverride,1
;   flipYoverride,-1
;   flipZoverride,1
;   toolheadOffsets,0,0|0,0|0,0|0,0|0,0|0,0
;   overrideFirmwareConfiguration,0
;   firmwareTypeOverride,RepRap (Marlin/Repetier/Sprinter)
;   GPXconfigOverride,r2
;   baudRateOverride,115200
;   overridePrinterModels,0
;   printerModelsOverride
;   startingGcode,G28 ; home all axes,G29
;   layerChangeGcode,
;   retractionGcode,
;   toolChangeGcode,
;   endingGcode,M104 S0 ; turn off extruder,M140 S0 ; turn off bed,M84 ; disable motors,G28 X0 Y0
;   exportFileFormat,gcode
;   celebration,0
;   celebrationSong,Funky Town
;   postProcessing,
;   defaultSpeed,4200
;   outlineUnderspeed,0.5
;   solidInfillUnderspeed,0.8
;   supportUnderspeed,0.8
;   rapidXYspeed,4800
;   rapidZspeed,1002
;   minBridgingArea,50
;   bridgingExtraInflation,0
;   bridgingExtrusionMultiplier,1
;   bridgingSpeedMultiplier,1
;   useFixedBridgingAngle,0
;   fixedBridgingAngle,0
;   applyBridgingToPerimeters,0
;   filamentDiameters,1.75|1.75|1.75|1.75|1.75|1.75
;   filamentPricesPerKg,46|46|46|46|46|46
;   filamentDensities,1.25|1.25|1.25|1.25|1.25|1.25
;   useMinPrintHeight,0
;   minPrintHeight,0
;   useMaxPrintHeight,0
;   maxPrintHeight,0
;   useDiaphragm,0
;   diaphragmLayerInterval,20
;   robustSlicing,1
;   mergeAllIntoSolid,0
;   onlyRetractWhenCrossingOutline,1
;   retractBetweenLayers,1
;   useRetractionMinTravel,0
;   retractionMinTravel,3
;   retractWhileWiping,0
;   onlyWipeOutlines,1
;   avoidCrossingOutline,1
;   maxMovementDetourFactor,3
;   toolChangeRetractionDistance,12
;   toolChangeExtraRestartDistance,-0.5
;   toolChangeRetractionSpeed,600
;   externalThinWallType,0
;   internalThinWallType,2
;   thinWallAllowedOverlapPercentage,10
;   singleExtrusionMinLength,1
;   singleExtrusionMinPrintingWidthPercentage,50
;   singleExtrusionMaxPrintingWidthPercentage,200
;   singleExtrusionEndpointExtension,0.2
;   horizontalSizeCompensation,0
G90
M82
M106 S0
M140 S65
M190 S65
M104 S205 T0
M109 S205 T0
G28 ; home all axes
G29
G92 E0
G1 E-10.0000 F6000
G1 Z0.390 F1002
; process Process1
; layer 1, Z = 0.090
T0
; tool H0.100 W0.400
; skirt
G1 X102.880 Y102.696 F4800
G1 Z0.090 F1002
G1 E0.0000 F1800
G92 E0
G1 X102.906 Y102.672 E0.0006 F840
G1 X103.770 Y101.921 E0.0196
G1 X103.804 Y101.894 E0.0203
G1 X104.207 Y101.601 E0.0286
G1 X104.243 Y101.577 E0.0294
G1 X105.225 Y100.987 E0.0484
G1 X105.255 Y100.970 E0.0490
G1 X105.610 Y100.790 E0.0556
G1 X105.642 Y100.775 E0.0562
G1 X106.348 Y100.475 E0.0689
G1 X106.372 Y100.466 E0.0694
G1 X106.653 Y100.364 E0.0743
G1 X106.678 Y100.355 E0.0748
G1 X107.363 Y100.146 E0.0867
G1 X107.389 Y100.139 E0.0871
G1 X107.678 Y100.067 E0.0921
G1 X107.704 Y100.061 E0.0925
G1 X108.408 Y99.924 E0.1045
G1 X108.434 Y99.920 E0.1049
G1 X108.729 Y99.878 E0.1099
G1 X108.755 Y99.875 E0.1103
G1 X109.470 Y99.813 E0.1222
G1 X109.496 Y99.811 E0.1227
G1 X109.794 Y99.801 E0.1276
G1 X109.820 Y99.801 E0.1281
G1 X110.587 Y99.814 E0.1408
G1 X110.622 Y99.816 E0.1414
G1 X111.019 Y99.851 E0.1480
G1 X111.053 Y99.855 E0.1486
G1 X112.135 Y100.027 E0.1668
G1 X112.169 Y100.033 E0.1674
G1 X112.557 Y100.123 E0.1740
G1 X112.591 Y100.132 E0.1746
G1 X113.325 Y100.356 E0.1873
G1 X113.349 Y100.364 E0.1878
G1 X113.630 Y100.467 E0.1927
G1 X113.654 Y100.476 E0.1932
G1 X114.314 Y100.757 E0.2051
G1 X114.338 Y100.767 E0.2055
G1 X114.606 Y100.898 E0.2105
G1 X114.630 Y100.910 E0.2109
G1 X115.257 Y101.258 E0.2229
G1 X115.279 Y101.271 E0.2233
G1 X115.533 Y101.430 E0.2283
G1 X115.554 Y101.444 E0.2287
G1 X116.142 Y101.855 E0.2406
G1 X116.163 Y101.871 E0.2411
G1 X116.398 Y102.055 E0.2460
G1 X116.418 Y102.072 E0.2465
G1 X116.960 Y102.542 E0.2584
G1 X116.979 Y102.560 E0.2588
G1 X117.194 Y102.767 E0.2638
G1 X117.212 Y102.786 E0.2642
G1 X117.735 Y103.347 E0.2770
G1 X117.758 Y103.373 E0.2776
G1 X118.008 Y103.683 E0.2842
G1 X118.029 Y103.710 E0.2848
G1 X118.686 Y104.649 E0.3038
G1 X118.710 Y104.685 E0.3045
G1 X118.958 Y105.116 E0.3128
G1 X118.979 Y105.155 E0.3135
G1 X119.462 Y106.193 E0.3326
G1 X119.476 Y106.225 E0.3332
G1 X119.619 Y106.597 E0.3398
G1 X119.630 Y106.630 E0.3404
G1 X119.854 Y107.363 E0.3531
G1 X119.861 Y107.389 E0.3536
G1 X119.933 Y107.678 E0.3585
G1 X119.939 Y107.704 E0.3590
G1 X120.076 Y108.408 E0.3709
G1 X120.080 Y108.434 E0.3713
G1 X120.122 Y108.729 E0.3763
G1 X120.125 Y108.755 E0.3767
G1 X120.187 Y109.470 E0.3886
G1 X120.189 Y109.496 E0.3891
G1 X120.199 Y109.794 E0.3940
G1 X120.199 Y109.820 E0.3945
G1 X120.186 Y110.587 E0.4072
G1 X120.184 Y110.622 E0.4078
G1 X120.149 Y111.019 E0.4144
G1 X120.145 Y111.053 E0.4150
G1 X119.973 Y112.135 E0.4332
G1 X119.967 Y112.169 E0.4338
G1 X119.877 Y112.557 E0.4404
G1 X119.868 Y112.591 E0.4410
G1 X119.644 Y113.325 E0.4538
G1 X119.636 Y113.349 E0.4542
G1 X119.533 Y113.630 E0.4592
G1 X119.524 Y113.654 E0.4596
G1 X119.243 Y114.314 E0.4715
G1 X119.233 Y114.338 E0.4720
G1 X119.102 Y114.606 E0.4769
G1 X119.090 Y114.630 E0.4774
G1 X118.742 Y115.257 E0.4893
G1 X118.729 Y115.279 E0.4897
G1 X118.570 Y115.533 E0.4947
G1 X118.556 Y115.554 E0.4951
G1 X118.145 Y116.142 E0.5070
G1 X118.129 Y116.163 E0.5075
G1 X117.945 Y116.398 E0.5125
G1 X117.928 Y116.418 E0.5129
G1 X117.458 Y116.960 E0.5248
G1 X117.440 Y116.979 E0.5252
G1 X117.233 Y117.194 E0.5302
G1 X117.214 Y117.212 E0.5306
G1 X116.653 Y117.735 E0.5434
G1 X116.627 Y117.758 E0.5440
G1 X116.317 Y118.008 E0.5506
G1 X116.290 Y118.029 E0.5512
G1 X115.351 Y118.686 E0.5702
G1 X115.315 Y118.710 E0.5710
G1 X114.884 Y118.958 E0.5792
G1 X114.845 Y118.979 E0.5800
G1 X113.807 Y119.462 E0.5990
G1 X113.775 Y119.476 E0.5996
G1 X113.403 Y119.619 E0.6062
G1 X113.370 Y119.630 E0.6068
G1 X112.637 Y119.854 E0.6195
G1 X112.611 Y119.861 E0.6200
G1 X112.322 Y119.933 E0.6249
G1 X112.296 Y119.939 E0.6254
G1 X111.592 Y120.076 E0.6373
G1 X111.566 Y120.080 E0.6377
G1 X111.271 Y120.122 E0.6427
G1 X111.245 Y120.125 E0.6431
G1 X110.530 Y120.187 E0.6551
G1 X110.504 Y120.189 E0.6555
G1 X110.206 Y120.199 E0.6605
G1 X110.180 Y120.199 E0.6609
G1 X109.413 Y120.186 E0.6737
G1 X109.378 Y120.184 E0.6742
G1 X108.981 Y120.149 E0.6809
G1 X108.947 Y120.145 E0.6814
G1 X107.865 Y119.973 E0.6996
G1 X107.830 Y119.967 E0.7002
G1 X107.443 Y119.877 E0.7068
G1 X107.409 Y119.868 E0.7074
G1 X106.675 Y119.644 E0.7202
G1 X106.651 Y119.636 E0.7206
G1 X106.370 Y119.533 E0.7256
G1 X106.346 Y119.524 E0.7260
G1 X105.686 Y119.243 E0.7379
G1 X105.662 Y119.233 E0.7384
G1 X105.393 Y119.102 E0.7433
G1 X105.370 Y119.090 E0.7438
G1 X104.743 Y118.742 E0.7557
G1 X104.721 Y118.729 E0.7561
G1 X104.467 Y118.570 E0.7611
G1 X104.446 Y118.556 E0.7615
G1 X103.858 Y118.145 E0.7735
G1 X103.837 Y118.129 E0.7739
G1 X103.602 Y117.945 E0.7789
G1 X103.582 Y117.928 E0.7793
G1 X103.040 Y117.458 E0.7912
G1 X103.021 Y117.440 E0.7917
G1 X102.806 Y117.233 E0.7966
G1 X102.788 Y117.214 E0.7971
G1 X102.265 Y116.653 E0.8098
G1 X102.242 Y116.627 E0.8104
G1 X101.992 Y116.317 E0.8170
G1 X101.971 Y116.290 E0.8176
G1 X101.314 Y115.351 E0.8366
G1 X101.290 Y115.315 E0.8374
G1 X101.042 Y114.884 E0.8457
G1 X101.021 Y114.845 E0.8464
G1 X100.538 Y113.807 E0.8654
G1 X100.524 Y113.775 E0.8660
G1 X100.381 Y113.403 E0.8726
G1 X100.370 Y113.370 E0.8732
G1 X100.146 Y112.637 E0.8860
G1 X100.139 Y112.611 E0.8864
G1 X100.067 Y112.322 E0.8914
G1 X100.061 Y112.296 E0.8918
G1 X99.924 Y111.592 E0.9037
G1 X99.920 Y111.566 E0.9042
G1 X99.878 Y111.271 E0.9091
G1 X99.875 Y111.245 E0.9096
G1 X99.813 Y110.530 E0.9215
G1 X99.811 Y110.504 E0.9219
G1 X99.801 Y110.206 E0.9269
G1 X99.801 Y110.180 E0.9273
G1 X99.813 Y109.462 E0.9392
G1 X99.814 Y109.436 E0.9397
G1 X99.835 Y109.139 E0.9446
G1 X99.838 Y109.112 E0.9451
G1 X99.925 Y108.401 E0.9570
G1 X99.929 Y108.375 E0.9574
G1 X99.981 Y108.081 E0.9624
G1 X99.986 Y108.055 E0.9628
G1 X100.159 Y107.308 E0.9756
G1 X100.168 Y107.275 E0.9762
G1 X100.284 Y106.894 E0.9828
G1 X100.296 Y106.861 E0.9834
G1 X100.688 Y105.838 E1.0016
G1 X100.702 Y105.806 E1.0022
G1 X100.870 Y105.445 E1.0088
G1 X100.886 Y105.414 E1.0094
G1 X101.258 Y104.743 E1.0221
G1 X101.271 Y104.721 E1.0226
G1 X101.430 Y104.467 E1.0275
G1 X101.444 Y104.446 E1.0280
G1 X101.855 Y103.858 E1.0399
G1 X101.871 Y103.837 E1.0403
G1 X102.055 Y103.602 E1.0453
G1 X102.072 Y103.582 E1.0457
G1 X102.575 Y103.003 E1.0585
G1 X102.599 Y102.977 E1.0591
G1 X102.880 Y102.696 E1.0657
G1 X103.158 Y102.984 F4800
G92 E0
G1 X103.173 Y102.969 E0.0003 F840
G1 X104.026 Y102.228 E0.0191
G1 X104.046 Y102.212 E0.0196
G1 X104.435 Y101.930 E0.0276
G1 X104.457 Y101.915 E0.0280
G1 X105.425 Y101.334 E0.0468
G1 X105.443 Y101.324 E0.0471
G1 X105.785 Y101.149 E0.0535
G1 X105.804 Y101.141 E0.0539
G1 X106.499 Y100.846 E0.0664
G1 X106.514 Y100.840 E0.0667
G1 X106.785 Y100.741 E0.0715
G1 X106.799 Y100.736 E0.0717
G1 X107.475 Y100.530 E0.0835
G1 X107.490 Y100.526 E0.0837
G1 X107.770 Y100.456 E0.0885
G1 X107.785 Y100.453 E0.0888
G1 X108.479 Y100.318 E0.1005
G1 X108.494 Y100.315 E0.1008
G1 X108.780 Y100.275 E0.1056
G1 X108.795 Y100.273 E0.1059
G1 X109.499 Y100.212 E0.1176
G1 X109.515 Y100.211 E0.1179
G1 X109.803 Y100.201 E0.1227
G1 X109.819 Y100.201 E0.1229
G1 X110.573 Y100.214 E0.1355
G1 X110.594 Y100.215 E0.1358
G1 X110.977 Y100.249 E0.1422
G1 X110.998 Y100.251 E0.1426
G1 X112.066 Y100.420 E0.1605
G1 X112.086 Y100.424 E0.1609
G1 X112.460 Y100.511 E0.1673
G1 X112.481 Y100.516 E0.1676
G1 X113.203 Y100.737 E0.1802
G1 X113.217 Y100.742 E0.1804
G1 X113.488 Y100.841 E0.1852
G1 X113.503 Y100.846 E0.1855
G1 X114.153 Y101.123 E0.1972
G1 X114.168 Y101.129 E0.1975
G1 X114.426 Y101.255 E0.2023
G1 X114.440 Y101.263 E0.2026
G1 X115.058 Y101.605 E0.2143
G1 X115.072 Y101.613 E0.2146
G1 X115.316 Y101.766 E0.2194
G1 X115.329 Y101.775 E0.2196
G1 X115.908 Y102.180 E0.2314
G1 X115.921 Y102.189 E0.2316
G1 X116.148 Y102.367 E0.2364
G1 X116.160 Y102.377 E0.2367
G1 X116.693 Y102.841 E0.2484
G1 X116.705 Y102.851 E0.2487
G1 X116.912 Y103.051 E0.2535
G1 X116.923 Y103.062 E0.2537
G1 X117.438 Y103.614 E0.2663
G1 X117.451 Y103.630 E0.2666
G1 X117.693 Y103.929 E0.2730
G1 X117.706 Y103.946 E0.2734
G1 X118.353 Y104.871 E0.2922
G1 X118.368 Y104.893 E0.2926
G1 X118.608 Y105.309 E0.3006
G1 X118.620 Y105.332 E0.3010
G1 X119.097 Y106.356 E0.3198
G1 X119.105 Y106.375 E0.3202
G1 X119.243 Y106.734 E0.3265
G1 X119.250 Y106.754 E0.3269
G1 X119.470 Y107.475 E0.3394
G1 X119.474 Y107.490 E0.3397
G1 X119.544 Y107.770 E0.3445
G1 X119.547 Y107.785 E0.3448
G1 X119.682 Y108.479 E0.3565
G1 X119.685 Y108.494 E0.3568
G1 X119.725 Y108.780 E0.3616
G1 X119.727 Y108.795 E0.3618
G1 X119.788 Y109.499 E0.3736
G1 X119.789 Y109.515 E0.3738
G1 X119.799 Y109.803 E0.3786
G1 X119.799 Y109.819 E0.3789
G1 X119.786 Y110.573 E0.3914
G1 X119.785 Y110.594 E0.3918
G1 X119.751 Y110.977 E0.3982
G1 X119.749 Y110.998 E0.3985
G1 X119.579 Y112.066 E0.4165
G1 X119.576 Y112.086 E0.4169
G1 X119.489 Y112.460 E0.4232
G1 X119.484 Y112.481 E0.4236
G1 X119.263 Y113.203 E0.4361
G1 X119.258 Y113.217 E0.4364
G1 X119.159 Y113.488 E0.4412
G1 X119.154 Y113.503 E0.4415
G1 X118.877 Y114.153 E0.4532
G1 X118.871 Y114.168 E0.4535
G1 X118.745 Y114.426 E0.4583
G1 X118.737 Y114.440 E0.4585
G1 X118.395 Y115.058 E0.4703
G1 X118.387 Y115.072 E0.4705
G1 X118.234 Y115.316 E0.4753
G1 X118.225 Y115.329 E0.4756
G1 X117.820 Y115.908 E0.4873
G1 X117.811 Y115.921 E0.4876
G1 X117.633 Y116.148 E0.4924
G1 X117.623 Y116.160 E0.4927
G1 X117.159 Y116.693 E0.5044
G1 X117.149 Y116.705 E0.5047
G1 X116.949 Y116.912 E0.5095
G1 X116.938 Y116.923 E0.5097
G1 X116.386 Y117.438 E0.5223
G1 X116.370 Y117.451 E0.5226
G1 X116.071 Y117.693 E0.5290
G1 X116.054 Y117.706 E0.5294
G1 X115.129 Y118.353 E0.5481
G1 X115.107 Y118.368 E0.5486
G1 X114.691 Y118.608 E0.5566
G1 X114.668 Y118.620 E0.5570
G1 X113.644 Y119.097 E0.5758
G1 X113.625 Y119.105 E0.5761
G1 X113.266 Y119.243 E0.5825
G1 X113.246 Y119.250 E0.5829
G1 X112.525 Y119.470 E0.5954
G1 X112.510 Y119.474 E0.5957
G1 X112.230 Y119.544 E0.6005
G1 X112.215 Y119.547 E0.6007
G1 X111.521 Y119.682 E0.6125
G1 X111.506 Y119.685 E0.6127
G1 X111.220 Y119.725 E0.6175
G1 X111.205 Y119.727 E0.6178
G1 X110.501 Y119.788 E0.6295
G1 X110.485 Y119.789 E0.6298
G1 X110.197 Y119.799 E0.6346
G1 X110.181 Y119.799 E0.6349
G1 X109.427 Y119.786 E0.6474
G1 X109.406 Y119.785 E0.6478
G1 X109.023 Y119.751 E0.6541
G1 X109.002 Y119.749 E0.6545
G1 X107.934 Y119.579 E0.6725
G1 X107.914 Y119.576 E0.6728
G1 X107.539 Y119.489 E0.6792
G1 X107.519 Y119.484 E0.6796
G1 X106.797 Y119.263 E0.6921
G1 X106.783 Y119.258 E0.6924
G1 X106.512 Y119.159 E0.6972
G1 X106.497 Y119.154 E0.6974
G1 X105.847 Y118.877 E0.7092
G1 X105.832 Y118.871 E0.7094
G1 X105.574 Y118.745 E0.7142
