; G-Code generated by Simplify3D(R) Version 4.0.0
; Nov 27, 2019 at 12:10:45 PM
; Settings Summary
;   processName,Process1
;   applyToModels,Corner Fit 2
;   profileName,E3_cat_FFF (modified)
;   profileVersion,2019-11-02 13:49:25
;   baseProfile,Default(2) (modified)
;   printMaterial,
;   printQuality,
;   printExtruders,
;   extruderName,Primary Extruder
;   extruderToolheadNumber,0
;   extruderDiameter,0.4
;   extruderAutoWidth,0
;   extruderWidth,0.4
;   extrusionMultiplier,1
;   extruderUseRetract,1
;   extruderRetractionDistance,10
;   extruderExtraRestartDistance,0
;   extruderRetractionZLift,0.3
;   extruderRetractionSpeed,6000
;   extruderUseCoasting,0
;   extruderCoastingDistance,2
;   extruderUseWipe,0
;   extruderWipeDistance,5
;   primaryExtruder,0
;   layerHeight,0.1
;   topSolidLayers,12
;   bottomSolidLayers,12
;   perimeterOutlines,3
;   printPerimetersInsideOut,1
;   startPointOption,3
;   startPointOriginX,100
;   startPointOriginY,150
;   sequentialIslands,1
;   spiralVaseMode,0
;   firstLayerHeightPercentage,90
;   firstLayerWidthPercentage,100
;   firstLayerUnderspeed,0.5
;   useRaft,1
;   raftExtruder,0
;   raftTopLayers,3
;   raftBaseLayers,2
;   raftOffset,3
;   raftSeparationDistance,0.14
;   raftTopInfill,100
;   aboveRaftSpeedMultiplier,0.3
;   useSkirt,1
;   skirtExtruder,0
;   skirtLayers,1
;   skirtOutlines,3
;   skirtOffset,5.2
;   usePrimePillar,0
;   primePillarExtruder,999
;   primePillarWidth,20
;   primePillarLocation,7
;   primePillarSpeedMultiplier,1
;   useOozeShield,0
;   oozeShieldExtruder,999
;   oozeShieldOffset,2
;   oozeShieldOutlines,1
;   oozeShieldSidewallShape,1
;   oozeShieldSidewallAngle,30
;   oozeShieldSpeedMultiplier,1
;   infillExtruder,0
;   internalInfillPattern,Fast Honeycomb
;   externalInfillPattern,Rectilinear
;   infillPercentage,35
;   outlineOverlapPercentage,30
;   infillExtrusionWidthPercentage,100
;   minInfillLength,5
;   infillLayerInterval,1
;   internalInfillAngles,0
;   overlapInternalInfillAngles,0
;   externalInfillAngles,45,-45
;   generateSupport,1
;   supportExtruder,0
;   supportInfillPercentage,40
;   supportExtraInflation,0
;   supportBaseLayers,0
;   denseSupportExtruder,0
;   denseSupportLayers,0
;   denseSupportInfillPercentage,70
;   supportLayerInterval,1
;   supportHorizontalPartOffset,0.3
;   supportUpperSeparationLayers,1
;   supportLowerSeparationLayers,1
;   supportType,0
;   supportGridSpacing,4
;   maxOverhangAngle,45
;   supportAngles,0
;   temperatureName,Primary Extruder,bed
;   temperatureNumber,0,0
;   temperatureSetpointCount,1,1
;   temperatureSetpointLayers,1,1
;   temperatureSetpointTemperatures,205,65
;   temperatureStabilizeAtStartup,1,1
;   temperatureHeatedBed,0,1
;   temperatureRelayBetweenLayers,0,0
;   temperatureRelayBetweenLoops,0,0
;   fanLayers,1,2
;   fanSpeeds,0,100
;   blipFanToFullPower,0
;   adjustSpeedForCooling,1
;   minSpeedLayerTime,15
;   minCoolingSpeedSlowdown,20
;   increaseFanForCooling,0
;   minFanLayerTime,45
;   maxCoolingFanSpeed,100
;   increaseFanForBridging,0
;   bridgingFanSpeed,100
;   use5D,1
;   relativeEdistances,0
;   allowEaxisZeroing,1
;   independentExtruderAxes,0
;   includeM10123,0
;   stickySupport,1
;   applyToolheadOffsets,0
;   gcodeXoffset,0
;   gcodeYoffset,0
;   gcodeZoffset,0
;   overrideMachineDefinition,1
;   machineTypeOverride,0
;   strokeXoverride,220
;   strokeYoverride,220
;   strokeZoverride,250
;   originOffsetXoverride,0
;   originOffsetYoverride,0
;   originOffsetZoverride,0
;   homeXdirOverride,-1
;   homeYdirOverride,-1
;   homeZdirOverride,-1
;   flipXoverride,1
;   flipYoverride,-1
;   flipZoverride,1
;   toolheadOffsets,0,0|0,0|0,0|0,0|0,0|0,0
;   overrideFirmwareConfiguration,0
;   firmwareTypeOverride,RepRap (Marlin/Repetier/Sprinter)
;   GPXconfigOverride,r2
;   baudRateOverride,115200
;   overridePrinterModels,0
;   printerModelsOverride
;   startingGcode,G28 ; home all axes,G29
;   layerChangeGcode,
;   retractionGcode,
;   toolChangeGcode,
;   endingGcode,M104 S0 ; turn off extruder,M140 S0 ; turn off bed,M84 ; disable motors,G28 X0 Y0
;   exportFileFormat,gcode
;   celebration,0
;   celebrationSong,Funky Town
;   postProcessing,
;   defaultSpeed,4200
;   outlineUnderspeed,0.5
;   solidInfillUnderspeed,0.8
;   supportUnderspeed,0.8
;   rapidXYspeed,4800
;   rapidZspeed,1002
;   minBridgingArea,50
;   bridgingExtraInflation,0
;   bridgingExtrusionMultiplier,1
;   bridgingSpeedMultiplier,1
;   useFixedBridgingAngle,0
;   fixedBridgingAngle,0
;   applyBridgingToPerimeters,0
;   filamentDiameters,1.75|1.75|1.75|1.75|1.75|1.75
;   filamentPricesPerKg,46|46|46|46|46|46
;   filamentDensities,1.25|1.25|1.25|1.25|1.25|1.25
;   useMinPrintHeight,0
;   minPrintHeight,0
;   useMaxPrintHeight,0
;   maxPrintHeight,0
;   useDiaphragm,0
;   diaphragmLayerInterval,20
;   robustSlicing,1
;   mergeAllIntoSolid,0
;   onlyRetractWhenCrossingOutline,1
;   retractBetweenLayers,1
;   useRetractionMinTravel,0
;   retractionMinTravel,3
;   retractWhileWiping,0
;   onlyWipeOutlines,1
;   avoidCrossingOutline,1
;   maxMovementDetourFactor,3
;   toolChangeRetractionDistance,12
;   toolChangeExtraRestartDistance,-0.5
;   toolChangeRetractionSpeed,600
;   externalThinWallType,0
;   internalThinWallType,2
;   thinWallAllowedOverlapPercentage,10
;   singleExtrusionMinLength,1
;   singleExtrusionMinPrintingWidthPercentage,50
;   singleExtrusionMaxPrintingWidthPercentage,200
;   singleExtrusionEndpointExtension,0.2
;   horizontalSizeCompensation,0
G90
M82
M106 S0
M140 S65
M190 S65
M104 S205 T0
M109 S205 T0
G28 ; home all axes
G29
G92 E0
G1 E-10.0000 F6000
G1 Z0.750 F1002
; process Process1
; layer 1, Z = 0.450
T0
; tool H0.500 W0.400
; skirt
G1 X99.662 Y94.762 F4800
G1 Z0.450 F1002
G1 E0.0000 F1800
G92 E0
G1 X100.025 Y94.599 E0.0331 F2100
G1 X119.200 Y94.006 E1.6283
G1 X119.572 Y94.147 E1.6613
G1 X124.810 Y99.068 E2.2589
G1 X124.974 Y99.430 E2.2920
G1 X125.164 Y105.420 E2.7904
G1 X125.245 Y105.505 E2.8001
G1 X125.392 Y105.881 E2.8337
G1 X125.263 Y110.499 E3.2178
G1 X125.262 Y110.531 E3.2205
G1 X125.211 Y111.081 E3.2664
G1 X125.207 Y111.113 E3.2691
G1 X125.052 Y112.109 E3.3529
G1 X125.045 Y112.142 E3.3557
G1 X124.913 Y112.724 E3.4053
G1 X124.905 Y112.757 E3.4081
G1 X124.502 Y114.095 E3.5244
G1 X124.491 Y114.130 E3.5274
G1 X124.263 Y114.726 E3.5805
G1 X124.248 Y114.760 E3.5836
G1 X123.717 Y115.894 E3.6877
G1 X123.703 Y115.920 E3.6901
G1 X123.458 Y116.371 E3.7328
G1 X123.444 Y116.397 E3.7353
G1 X122.867 Y117.324 E3.8260
G1 X122.849 Y117.350 E3.8287
G1 X122.529 Y117.799 E3.8745
G1 X122.510 Y117.824 E3.8772
G1 X121.469 Y119.103 E4.0143
G1 X121.447 Y119.128 E4.0170
G1 X121.057 Y119.547 E4.0646
G1 X121.034 Y119.570 E4.0673
G1 X120.061 Y120.488 E4.1785
G1 X120.039 Y120.507 E4.1810
G1 X119.647 Y120.836 E4.2235
G1 X119.624 Y120.854 E4.2260
G1 X118.343 Y121.804 E4.3586
G1 X118.319 Y121.821 E4.3611
G1 X117.886 Y122.104 E4.4041
G1 X117.860 Y122.120 E4.4065
G1 X116.281 Y123.023 E4.5578
G1 X116.259 Y123.035 E4.5599
G1 X115.876 Y123.229 E4.5956
G1 X115.854 Y123.240 E4.5976
G1 X114.253 Y123.956 E4.7435
G1 X114.230 Y123.966 E4.7456
G1 X113.817 Y124.126 E4.7824
G1 X113.793 Y124.134 E4.7845
G1 X111.945 Y124.744 E4.9463
G1 X111.924 Y124.751 E4.9481
G1 X111.547 Y124.857 E4.9807
G1 X111.526 Y124.862 E4.9825
G1 X109.492 Y125.337 E5.1562
G1 X109.473 Y125.341 E5.1578
G1 X109.143 Y125.404 E5.1857
G1 X109.124 Y125.407 E5.1873
G1 X107.449 Y125.664 E5.3283
G1 X107.435 Y125.666 E5.3294
G1 X107.200 Y125.695 E5.3491
G1 X107.186 Y125.697 E5.3503
G1 X106.157 Y125.797 E5.4363
G1 X106.145 Y125.798 E5.4372
G1 X105.950 Y125.813 E5.4535
G1 X105.939 Y125.813 E5.4544
G1 X101.140 Y126.065 E5.8540
G1 X100.761 Y125.928 E5.8875
G1 X95.389 Y120.986 E6.4945
G1 X95.221 Y120.619 E6.5281
G1 X95.095 Y116.546 E6.8669
G1 X94.732 Y116.183 E6.9095
G1 X94.580 Y115.815 E6.9426
G1 X94.580 Y101.468 E8.1356
G1 X94.626 Y101.355 E8.1458
G1 X94.596 Y100.373 E8.2274
G1 X94.736 Y100.001 E8.2605
G1 X99.662 Y94.762 E8.8584
G92 E0
G1 E-10.0000 F6000
G1 Z0.750 F1002
G1 X99.899 Y95.094 F4800
G1 Z0.450 F1002
G1 E0.0000 F6000
G92 E0
G1 X100.116 Y94.996 E0.0198 F2100
G1 X119.133 Y94.409 E1.6018
G1 X119.356 Y94.493 E1.6217
G1 X124.478 Y99.305 E2.2060
G1 X124.576 Y99.522 E2.2259
G1 X124.769 Y105.588 E2.7305
G1 X124.902 Y105.725 E2.7464
G1 X124.990 Y105.951 E2.7665
G1 X124.864 Y110.482 E3.1434
G1 X124.863 Y110.501 E3.1450
G1 X124.813 Y111.039 E3.1899
G1 X124.811 Y111.057 E3.1915
G1 X124.658 Y112.040 E3.2742
G1 X124.654 Y112.061 E3.2759
G1 X124.525 Y112.628 E3.3243
G1 X124.520 Y112.648 E3.3260
G1 X124.121 Y113.973 E3.4411
G1 X124.114 Y113.994 E3.4429
G1 X123.892 Y114.577 E3.4948
G1 X123.883 Y114.597 E3.4966
G1 X123.357 Y115.719 E3.5996
G1 X123.349 Y115.734 E3.6011
G1 X123.110 Y116.175 E3.6428
G1 X123.101 Y116.191 E3.6443
G1 X122.531 Y117.107 E3.7340
G1 X122.520 Y117.123 E3.7356
G1 X122.207 Y117.562 E3.7804
G1 X122.195 Y117.577 E3.7820
G1 X121.163 Y118.845 E3.9180
G1 X121.150 Y118.860 E3.9196
G1 X120.769 Y119.270 E3.9661
G1 X120.755 Y119.284 E3.9678
G1 X119.791 Y120.193 E4.0779
G1 X119.778 Y120.204 E4.0794
G1 X119.394 Y120.526 E4.1210
G1 X119.381 Y120.536 E4.1225
G1 X118.109 Y121.480 E4.2541
G1 X118.095 Y121.490 E4.2556
G1 X117.672 Y121.766 E4.2976
G1 X117.657 Y121.775 E4.2991
G1 X116.087 Y122.673 E4.4494
G1 X116.074 Y122.680 E4.4507
G1 X115.699 Y122.870 E4.4856
G1 X115.686 Y122.877 E4.4868
G1 X114.094 Y123.589 E4.6318
G1 X114.080 Y123.595 E4.6331
G1 X113.677 Y123.751 E4.6690
G1 X113.663 Y123.756 E4.6703
G1 X111.824 Y124.363 E4.8313
G1 X111.811 Y124.367 E4.8324
G1 X111.443 Y124.471 E4.8642
G1 X111.430 Y124.474 E4.8653
G1 X109.405 Y124.946 E5.0383
G1 X109.393 Y124.949 E5.0392
G1 X109.071 Y125.011 E5.0665
G1 X109.060 Y125.013 E5.0675
G1 X107.391 Y125.268 E5.2079
G1 X107.383 Y125.269 E5.2085
G1 X107.153 Y125.298 E5.2278
G1 X107.145 Y125.299 E5.2285
G1 X106.120 Y125.399 E5.3141
G1 X106.113 Y125.399 E5.3147
G1 X105.923 Y125.414 E5.3305
G1 X105.916 Y125.414 E5.3311
G1 X101.200 Y125.661 E5.7238
G1 X100.972 Y125.579 E5.7439
G1 X95.719 Y120.746 E6.3375
G1 X95.618 Y120.526 E6.3576
G1 X95.490 Y116.375 E6.7029
G1 X95.071 Y115.956 E6.7521
G1 X94.980 Y115.736 E6.7720
G1 X94.980 Y101.546 E7.9519
G1 X95.028 Y101.427 E7.9626
G1 X94.998 Y100.441 E8.0446
G1 X95.082 Y100.217 E8.0645
G1 X99.899 Y95.094 E8.6492
G92 E0
G1 E-10.0000 F6000
G1 Z0.750 F1002
G1 X100.136 Y95.426 F4800
G1 Z0.450 F1002
G1 E0.0000 F6000
G92 E0
G1 X100.208 Y95.393 E0.0066 F2100
G1 X119.066 Y94.811 E1.5754
G1 X119.140 Y94.839 E1.5820
G1 X124.146 Y99.542 E2.1531
G1 X124.179 Y99.614 E2.1597
G1 X124.374 Y105.755 E2.6706
G1 X124.558 Y105.945 E2.6926
G1 X124.588 Y106.021 E2.6994
G1 X124.464 Y110.464 E3.0690
G1 X124.464 Y110.470 E3.0695
G1 X124.416 Y110.996 E3.1133
G1 X124.415 Y111.002 E3.1139
G1 X124.263 Y111.972 E3.1955
G1 X124.262 Y111.979 E3.1961
G1 X124.136 Y112.533 E3.2433
G1 X124.134 Y112.540 E3.2439
G1 X123.741 Y113.851 E3.3578
G1 X123.738 Y113.858 E3.3584
G1 X123.521 Y114.427 E3.4090
G1 X123.518 Y114.434 E3.4096
G1 X122.997 Y115.543 E3.5115
G1 X122.995 Y115.549 E3.5120
G1 X122.761 Y115.979 E3.5528
G1 X122.758 Y115.984 E3.5533
G1 X122.194 Y116.890 E3.6420
G1 X122.191 Y116.896 E3.6425
G1 X121.885 Y117.324 E3.6863
G1 X121.881 Y117.329 E3.6868
G1 X120.857 Y118.588 E3.8218
G1 X120.852 Y118.593 E3.8223
G1 X120.481 Y118.993 E3.8677
G1 X120.476 Y118.997 E3.8683
G1 X119.521 Y119.897 E3.9774
G1 X119.517 Y119.901 E3.9779
G1 X119.142 Y120.215 E4.0185
G1 X119.138 Y120.219 E4.0190
G1 X117.876 Y121.155 E4.1496
G1 X117.871 Y121.158 E4.1501
G1 X117.458 Y121.428 E4.1911
G1 X117.453 Y121.431 E4.1916
G1 X115.892 Y122.323 E4.3411
G1 X115.888 Y122.326 E4.3415
G1 X115.523 Y122.512 E4.3756
G1 X115.518 Y122.514 E4.3760
G1 X113.936 Y123.222 E4.5201
G1 X113.931 Y123.224 E4.5206
G1 X113.537 Y123.376 E4.5557
G1 X113.533 Y123.378 E4.5561
G1 X111.703 Y123.982 E4.7163
G1 X111.699 Y123.983 E4.7167
G1 X111.340 Y124.084 E4.7477
G1 X111.335 Y124.085 E4.7481
G1 X109.317 Y124.556 E4.9203
G1 X109.314 Y124.556 E4.9207
G1 X108.999 Y124.617 E4.9473
G1 X108.995 Y124.618 E4.9476
G1 X107.333 Y124.872 E5.0875
G1 X107.330 Y124.873 E5.0877
G1 X107.106 Y124.901 E5.1065
G1 X107.103 Y124.901 E5.1067
G1 X106.083 Y125.000 E5.1919
G1 X106.081 Y125.001 E5.1921
G1 X105.895 Y125.015 E5.2076
G1 X105.893 Y125.015 E5.2078
G1 X101.260 Y125.258 E5.5936
G1 X101.184 Y125.230 E5.6003
G1 X96.049 Y120.506 E6.1805
G1 X96.015 Y120.433 E6.1872
G1 X95.885 Y116.204 E6.5389
G1 X95.410 Y115.730 E6.5947
G1 X95.380 Y115.656 E6.6013
G1 X95.380 Y101.624 E7.7681
G1 X95.409 Y101.552 E7.7746
G1 X95.432 Y101.529 E7.7773
G1 X95.400 Y100.508 E7.8622
G1 X95.428 Y100.433 E7.8688
G1 X100.136 Y95.426 E8.4403
G92 E0
G1 E-10.0000 F6000
G1 Z0.750 F1002
; tool H0.500 W0.800
; raft
G1 X102.746 Y101.118 F4800
G1 Z0.450 F1002
G1 E0.0000 F6000
G92 E0
G1 X116.888 Y100.681 E2.3530 F525
G1 X118.457 Y102.155 E2.7110
G1 X118.557 Y105.305 E3.2351
G1 X118.126 Y105.763 E3.3397
G1 X118.189 Y107.710 E3.6635
G1 X118.723 Y108.260 E3.7910
G1 X118.671 Y110.122 E4.1008
G1 X118.656 Y110.286 E4.1282
G1 X118.568 Y110.855 E4.2239
G1 X118.544 Y110.970 E4.2435
G1 X118.417 Y111.479 E4.3308
G1 X118.381 Y111.598 E4.3514
G1 X118.219 Y112.052 E4.4316
G1 X118.189 Y112.130 E4.4455
G1 X118.013 Y112.540 E4.5197
G1 X117.974 Y112.624 E4.5350
G1 X117.783 Y112.993 E4.6041
G1 X117.731 Y113.084 E4.6216
G1 X117.374 Y113.659 E4.7342
G1 X117.298 Y113.768 E4.7562
G1 X116.815 Y114.394 E4.8877
G1 X116.759 Y114.461 E4.9023
G1 X116.433 Y114.828 E4.9838
G1 X116.378 Y114.887 E4.9972
G1 X116.037 Y115.226 E5.0772
G1 X115.985 Y115.276 E5.0892
G1 X115.642 Y115.581 E5.1655
G1 X115.595 Y115.620 E5.1757
G1 X115.234 Y115.912 E5.2529
G1 X115.166 Y115.964 E5.2671
G1 X114.536 Y116.409 E5.3955
G1 X114.468 Y116.453 E5.4089
G1 X113.895 Y116.807 E5.5210
G1 X113.828 Y116.846 E5.5338
G1 X113.100 Y117.237 E5.6713
G1 X113.035 Y117.269 E5.6833
G1 X112.165 Y117.676 E5.8430
G1 X112.103 Y117.704 E5.8543
G1 X111.647 Y117.888 E5.9361
G1 X111.592 Y117.909 E5.9459
G1 X110.727 Y118.215 E6.0985
G1 X110.669 Y118.234 E6.1086
G1 X109.972 Y118.444 E6.2298
G1 X109.923 Y118.458 E6.2381
G1 X109.207 Y118.643 E6.3612
G1 X109.156 Y118.655 E6.3698
G1 X108.094 Y118.885 E6.5505
G1 X108.051 Y118.893 E6.5578
G1 X107.538 Y118.986 E6.6446
G1 X107.485 Y118.995 E6.6535
G1 X106.506 Y119.131 E6.8178
G1 X106.453 Y119.137 E6.8267
G1 X105.584 Y119.222 E6.9720
G1 X105.525 Y119.226 E6.9818
G1 X103.348 Y119.340 E7.3443
G1 X101.739 Y117.860 E7.7080
G1 X101.611 Y113.728 E8.3954
G1 X101.180 Y113.297 E8.4967
G1 X101.180 Y103.932 E10.0541
G1 X101.305 Y103.804 E10.0839
G1 X101.270 Y102.687 E10.2697
G1 X102.746 Y101.118 E10.6279
G92 E0
G1 E-10.0000 F6000
G1 Z0.750 F1002
G1 X102.085 Y103.143 F4800
G1 Z0.450 F1002
G1 E0.0000 F6000
G92 E0
G1 X117.688 Y103.143 E2.5948 F525
G1 X117.747 Y104.999 E2.9036
G1 X117.343 Y105.429 E3.0016
G1 X101.980 Y105.429 E5.5565
G1 X101.980 Y107.714 E5.9366
G1 X117.389 Y107.714 E8.4991
G1 X117.400 Y108.045 E8.5541
G1 X117.914 Y108.575 E8.6770
G1 X117.874 Y110.000 E8.9141
G1 X101.980 Y110.000 E11.5573
G1 X101.980 Y112.286 E11.9374
G1 X117.248 Y112.286 E14.4765
G1 X117.080 Y112.612 E14.5375
G1 X117.044 Y112.675 E14.5496
G1 X116.705 Y113.220 E14.6562
G1 X116.653 Y113.295 E14.6714
G1 X116.190 Y113.894 E14.7973
G1 X116.151 Y113.940 E14.8074
G1 X115.843 Y114.288 E14.8847
G1 X115.805 Y114.328 E14.8939
G1 X115.561 Y114.571 E14.9512
G1 X102.438 Y114.571 E17.1336
G1 X102.508 Y116.857 E17.5139
G1 X112.029 Y116.857 E19.0971
G92 E0
G1 E-10.0000 F6000
G1 Z1.250 F1002
; layer 2, Z = 0.950
M106 S255
G1 X112.165 Y117.676 F4800
G1 Z0.950 F1002
G1 E0.0000 F6000
G92 E0
G1 X112.103 Y117.704 E0.0113 F1050
G1 X111.647 Y117.888 E0.0931
G1 X111.592 Y117.909 E0.1029
G1 X110.727 Y118.215 E0.2555
G1 X110.669 Y118.234 E0.2656
G1 X109.972 Y118.444 E0.3867
G1 X109.923 Y118.458 E0.3951
G1 X109.207 Y118.643 E0.5182
G1 X109.156 Y118.655 E0.5268
G1 X108.094 Y118.885 E0.7075
G1 X108.051 Y118.893 E0.7148
G1 X107.538 Y118.986 E0.8016
G1 X107.485 Y118.995 E0.8105
G1 X106.506 Y119.131 E0.9748
G1 X106.453 Y119.137 E0.9836
G1 X105.584 Y119.222 E1.1290
G1 X105.525 Y119.226 E1.1387
