; G-Code generated by Simplify3D(R) Version 4.0.0
; Nov 27, 2019 at 10:54:33 AM
; Settings Summary
;   processName,Process1
;   applyToModels,Corner Fit
;   profileName,E3_cat_FFF (modified)
;   profileVersion,2019-11-02 13:49:25
;   baseProfile,Default(2) (modified)
;   printMaterial,
;   printQuality,
;   printExtruders,
;   extruderName,Primary Extruder
;   extruderToolheadNumber,0
;   extruderDiameter,0.4
;   extruderAutoWidth,0
;   extruderWidth,0.4
;   extrusionMultiplier,1
;   extruderUseRetract,1
;   extruderRetractionDistance,10
;   extruderExtraRestartDistance,0
;   extruderRetractionZLift,0.3
;   extruderRetractionSpeed,6000
;   extruderUseCoasting,0
;   extruderCoastingDistance,2
;   extruderUseWipe,0
;   extruderWipeDistance,5
;   primaryExtruder,0
;   layerHeight,0.1
;   topSolidLayers,12
;   bottomSolidLayers,12
;   perimeterOutlines,3
;   printPerimetersInsideOut,1
;   startPointOption,3
;   startPointOriginX,100
;   startPointOriginY,150
;   sequentialIslands,1
;   spiralVaseMode,0
;   firstLayerHeightPercentage,90
;   firstLayerWidthPercentage,100
;   firstLayerUnderspeed,0.5
;   useRaft,0
;   raftExtruder,0
;   raftTopLayers,3
;   raftBaseLayers,2
;   raftOffset,3
;   raftSeparationDistance,0.14
;   raftTopInfill,100
;   aboveRaftSpeedMultiplier,0.3
;   useSkirt,1
;   skirtExtruder,0
;   skirtLayers,1
;   skirtOutlines,3
;   skirtOffset,5.2
;   usePrimePillar,0
;   primePillarExtruder,999
;   primePillarWidth,20
;   primePillarLocation,7
;   primePillarSpeedMultiplier,1
;   useOozeShield,0
;   oozeShieldExtruder,999
;   oozeShieldOffset,2
;   oozeShieldOutlines,1
;   oozeShieldSidewallShape,1
;   oozeShieldSidewallAngle,30
;   oozeShieldSpeedMultiplier,1
;   infillExtruder,0
;   internalInfillPattern,Fast Honeycomb
;   externalInfillPattern,Rectilinear
;   infillPercentage,35
;   outlineOverlapPercentage,30
;   infillExtrusionWidthPercentage,100
;   minInfillLength,5
;   infillLayerInterval,1
;   internalInfillAngles,0
;   overlapInternalInfillAngles,0
;   externalInfillAngles,45,-45
;   generateSupport,1
;   supportExtruder,0
;   supportInfillPercentage,40
;   supportExtraInflation,0
;   supportBaseLayers,0
;   denseSupportExtruder,0
;   denseSupportLayers,0
;   denseSupportInfillPercentage,70
;   supportLayerInterval,1
;   supportHorizontalPartOffset,0.3
;   supportUpperSeparationLayers,1
;   supportLowerSeparationLayers,1
;   supportType,0
;   supportGridSpacing,4
;   maxOverhangAngle,45
;   supportAngles,0
;   temperatureName,Primary Extruder,bed
;   temperatureNumber,0,0
;   temperatureSetpointCount,1,1
;   temperatureSetpointLayers,1,1
;   temperatureSetpointTemperatures,205,65
;   temperatureStabilizeAtStartup,1,1
;   temperatureHeatedBed,0,1
;   temperatureRelayBetweenLayers,0,0
;   temperatureRelayBetweenLoops,0,0
;   fanLayers,1,2
;   fanSpeeds,0,100
;   blipFanToFullPower,0
;   adjustSpeedForCooling,1
;   minSpeedLayerTime,15
;   minCoolingSpeedSlowdown,20
;   increaseFanForCooling,0
;   minFanLayerTime,45
;   maxCoolingFanSpeed,100
;   increaseFanForBridging,0
;   bridgingFanSpeed,100
;   use5D,1
;   relativeEdistances,0
;   allowEaxisZeroing,1
;   independentExtruderAxes,0
;   includeM10123,0
;   stickySupport,1
;   applyToolheadOffsets,0
;   gcodeXoffset,0
;   gcodeYoffset,0
;   gcodeZoffset,0
;   overrideMachineDefinition,1
;   machineTypeOverride,0
;   strokeXoverride,220
;   strokeYoverride,220
;   strokeZoverride,250
;   originOffsetXoverride,0
;   originOffsetYoverride,0
;   originOffsetZoverride,0
;   homeXdirOverride,-1
;   homeYdirOverride,-1
;   homeZdirOverride,-1
;   flipXoverride,1
;   flipYoverride,-1
;   flipZoverride,1
;   toolheadOffsets,0,0|0,0|0,0|0,0|0,0|0,0
;   overrideFirmwareConfiguration,0
;   firmwareTypeOverride,RepRap (Marlin/Repetier/Sprinter)
;   GPXconfigOverride,r2
;   baudRateOverride,115200
;   overridePrinterModels,0
;   printerModelsOverride
;   startingGcode,G28 ; home all axes,G29
;   layerChangeGcode,
;   retractionGcode,
;   toolChangeGcode,
;   endingGcode,M104 S0 ; turn off extruder,M140 S0 ; turn off bed,M84 ; disable motors,G28 X0 Y0
;   exportFileFormat,gcode
;   celebration,0
;   celebrationSong,Funky Town
;   postProcessing,
;   defaultSpeed,4200
;   outlineUnderspeed,0.5
;   solidInfillUnderspeed,0.8
;   supportUnderspeed,0.8
;   rapidXYspeed,4800
;   rapidZspeed,1002
;   minBridgingArea,50
;   bridgingExtraInflation,0
;   bridgingExtrusionMultiplier,1
;   bridgingSpeedMultiplier,1
;   useFixedBridgingAngle,0
;   fixedBridgingAngle,0
;   applyBridgingToPerimeters,0
;   filamentDiameters,1.75|1.75|1.75|1.75|1.75|1.75
;   filamentPricesPerKg,46|46|46|46|46|46
;   filamentDensities,1.25|1.25|1.25|1.25|1.25|1.25
;   useMinPrintHeight,0
;   minPrintHeight,0
;   useMaxPrintHeight,0
;   maxPrintHeight,0
;   useDiaphragm,0
;   diaphragmLayerInterval,20
;   robustSlicing,1
;   mergeAllIntoSolid,0
;   onlyRetractWhenCrossingOutline,1
;   retractBetweenLayers,1
;   useRetractionMinTravel,0
;   retractionMinTravel,3
;   retractWhileWiping,0
;   onlyWipeOutlines,1
;   avoidCrossingOutline,1
;   maxMovementDetourFactor,3
;   toolChangeRetractionDistance,12
;   toolChangeExtraRestartDistance,-0.5
;   toolChangeRetractionSpeed,600
;   externalThinWallType,0
;   internalThinWallType,2
;   thinWallAllowedOverlapPercentage,10
;   singleExtrusionMinLength,1
;   singleExtrusionMinPrintingWidthPercentage,50
;   singleExtrusionMaxPrintingWidthPercentage,200
;   singleExtrusionEndpointExtension,0.2
;   horizontalSizeCompensation,0
G90
M82
M106 S0
M140 S65
M190 S65
M104 S205 T0
M109 S205 T0
G28 ; home all axes
G29
G92 E0
G1 E-10.0000 F6000
G1 Z0.390 F1002
; process Process1
; layer 1, Z = 0.090
T0
; tool H0.100 W0.400
; skirt
G1 X98.052 Y101.142 F4800
G1 Z0.090 F1002
G1 E0.0000 F1800
G92 E0
G1 X101.480 Y97.878 E0.0787 F840
G1 X101.853 Y97.735 E0.0854
G1 X105.049 Y97.826 E0.1385
G1 X105.069 Y97.828 E0.1389
G1 X105.305 Y97.844 E0.1428
G1 X105.326 Y97.846 E0.1431
G1 X106.853 Y98.017 E0.1687
G1 X106.878 Y98.020 E0.1691
G1 X107.159 Y98.066 E0.1739
G1 X107.184 Y98.071 E0.1743
G1 X108.431 Y98.339 E0.1955
G1 X108.448 Y98.343 E0.1958
G1 X108.646 Y98.393 E0.1992
G1 X108.663 Y98.398 E0.1995
G1 X109.374 Y98.604 E0.2118
G1 X109.393 Y98.610 E0.2121
G1 X109.610 Y98.683 E0.2159
G1 X109.629 Y98.690 E0.2163
G1 X111.263 Y99.312 E0.2453
G1 X111.283 Y99.320 E0.2457
G1 X111.510 Y99.418 E0.2498
G1 X111.529 Y99.427 E0.2502
G1 X112.443 Y99.868 E0.2670
G1 X112.464 Y99.879 E0.2674
G1 X112.697 Y100.005 E0.2718
G1 X112.717 Y100.017 E0.2722
G1 X114.162 Y100.889 E0.3003
G1 X114.185 Y100.904 E0.3007
G1 X114.442 Y101.079 E0.3059
G1 X114.464 Y101.095 E0.3064
G1 X115.535 Y101.913 E0.3288
G1 X115.555 Y101.929 E0.3292
G1 X115.781 Y102.121 E0.3341
G1 X115.800 Y102.138 E0.3346
G1 X117.096 Y103.361 E0.3642
G1 X117.112 Y103.376 E0.3645
G1 X117.284 Y103.554 E0.3687
G1 X117.299 Y103.569 E0.3690
G1 X117.974 Y104.327 E0.3859
G1 X117.989 Y104.345 E0.3863
G1 X118.156 Y104.551 E0.3907
G1 X118.170 Y104.569 E0.3911
G1 X119.171 Y105.928 E0.4191
G1 X119.187 Y105.951 E0.4196
G1 X119.357 Y106.211 E0.4248
G1 X119.371 Y106.234 E0.4252
G1 X120.048 Y107.399 E0.4476
G1 X120.060 Y107.422 E0.4481
G1 X120.195 Y107.686 E0.4530
G1 X120.207 Y107.709 E0.4534
G1 X120.936 Y109.335 E0.4831
G1 X120.944 Y109.355 E0.4834
G1 X121.036 Y109.584 E0.4875
G1 X121.043 Y109.605 E0.4879
G1 X121.377 Y110.563 E0.5048
G1 X121.384 Y110.585 E0.5051
G1 X121.460 Y110.839 E0.5096
G1 X121.466 Y110.861 E0.5099
G1 X121.871 Y112.501 E0.5380
G1 X121.876 Y112.528 E0.5385
G1 X121.935 Y112.834 E0.5437
G1 X121.939 Y112.861 E0.5441
G1 X122.115 Y114.183 E0.5663
G1 X122.118 Y114.205 E0.5667
G1 X122.140 Y114.458 E0.5709
G1 X122.142 Y114.480 E0.5713
G1 X122.297 Y118.035 E0.6304
G1 X122.159 Y118.411 E0.6371
G1 X118.933 Y121.891 E0.7160
G1 X118.568 Y122.057 E0.7227
G1 X111.865 Y122.271 E0.8342
G1 X111.495 Y122.133 E0.8408
G1 X108.072 Y118.957 E0.9184
G1 X107.907 Y118.599 E0.9250
G1 X107.777 Y115.578 E0.9753
G1 X107.739 Y115.303 E0.9799
G1 X107.680 Y115.044 E0.9843
G1 X107.572 Y114.719 E0.9900
G1 X107.307 Y114.130 E1.0007
G1 X107.188 Y113.925 E1.0047
G1 X107.064 Y113.750 E1.0083
G1 X106.646 Y113.282 E1.0187
G1 X106.373 Y113.032 E1.0248
G1 X106.191 Y112.893 E1.0286
G1 X105.782 Y112.646 E1.0366
G1 X105.458 Y112.496 E1.0425
G1 X105.056 Y112.350 E1.0496
G1 X104.836 Y112.292 E1.0534
G1 X104.363 Y112.220 E1.0614
G1 X101.428 Y112.099 E1.1102
G1 X101.071 Y111.936 E1.1168
G1 X97.895 Y108.557 E1.1939
G1 X97.754 Y108.191 E1.2004
G1 X97.891 Y101.508 E1.3116
G1 X98.052 Y101.142 E1.3182
G1 X98.386 Y101.376 F4800
G92 E0
G1 X101.698 Y98.223 E0.0760 F840
G1 X101.922 Y98.137 E0.0800
G1 X105.033 Y98.226 E0.1318
G1 X105.046 Y98.227 E0.1320
G1 X105.273 Y98.243 E0.1358
G1 X105.285 Y98.244 E0.1360
G1 X106.803 Y98.414 E0.1614
G1 X106.818 Y98.416 E0.1617
G1 X107.090 Y98.460 E0.1662
G1 X107.105 Y98.463 E0.1665
G1 X108.343 Y98.729 E0.1875
G1 X108.353 Y98.731 E0.1877
G1 X108.545 Y98.780 E0.1910
G1 X108.555 Y98.783 E0.1912
G1 X109.258 Y98.987 E0.2034
G1 X109.270 Y98.991 E0.2036
G1 X109.479 Y99.061 E0.2072
G1 X109.491 Y99.065 E0.2074
G1 X111.117 Y99.684 E0.2364
G1 X111.129 Y99.689 E0.2366
G1 X111.347 Y99.783 E0.2406
G1 X111.359 Y99.789 E0.2408
G1 X112.265 Y100.226 E0.2575
G1 X112.277 Y100.233 E0.2577
G1 X112.502 Y100.355 E0.2620
G1 X112.514 Y100.361 E0.2622
G1 X113.951 Y101.229 E0.2901
G1 X113.964 Y101.238 E0.2904
G1 X114.212 Y101.407 E0.2954
G1 X114.226 Y101.416 E0.2956
G1 X115.288 Y102.227 E0.3179
G1 X115.300 Y102.237 E0.3181
G1 X115.518 Y102.422 E0.3229
G1 X115.529 Y102.433 E0.3232
G1 X116.819 Y103.649 E0.3526
G1 X116.828 Y103.658 E0.3528
G1 X116.994 Y103.829 E0.3568
G1 X117.003 Y103.839 E0.3570
G1 X117.672 Y104.590 E0.3737
G1 X117.681 Y104.600 E0.3740
G1 X117.842 Y104.799 E0.3782
G1 X117.851 Y104.810 E0.3785
G1 X118.846 Y106.161 E0.4064
G1 X118.855 Y106.174 E0.4066
G1 X119.020 Y106.425 E0.4116
G1 X119.028 Y106.439 E0.4119
G1 X119.699 Y107.595 E0.4341
G1 X119.706 Y107.609 E0.4344
G1 X119.837 Y107.863 E0.4391
G1 X119.844 Y107.878 E0.4394
G1 X120.569 Y109.495 E0.4689
G1 X120.574 Y109.507 E0.4691
G1 X120.662 Y109.728 E0.4731
G1 X120.667 Y109.740 E0.4733
G1 X120.998 Y110.690 E0.4900
G1 X121.002 Y110.703 E0.4902
G1 X121.075 Y110.948 E0.4945
G1 X121.078 Y110.962 E0.4947
G1 X121.481 Y112.592 E0.5226
G1 X121.485 Y112.608 E0.5229
G1 X121.541 Y112.903 E0.5279
G1 X121.543 Y112.919 E0.5282
G1 X121.718 Y114.232 E0.5502
G1 X121.720 Y114.245 E0.5504
G1 X121.741 Y114.489 E0.5545
G1 X121.742 Y114.502 E0.5547
G1 X121.894 Y117.972 E0.6125
G1 X121.811 Y118.198 E0.6165
G1 X118.694 Y121.560 E0.6927
G1 X118.476 Y121.660 E0.6967
G1 X111.931 Y121.869 E0.8056
G1 X111.709 Y121.786 E0.8095
G1 X108.402 Y118.718 E0.8846
G1 X108.303 Y118.503 E0.8885
G1 X108.175 Y115.543 E0.9378
G1 X108.133 Y115.231 E0.9430
G1 X108.065 Y114.936 E0.9480
G1 X107.946 Y114.574 E0.9544
G1 X107.664 Y113.947 E0.9658
G1 X107.525 Y113.708 E0.9704
G1 X107.377 Y113.500 E0.9747
G1 X106.931 Y113.001 E0.9858
G1 X106.630 Y112.725 E0.9926
G1 X106.416 Y112.562 E0.9970
G1 X105.970 Y112.293 E1.0057
G1 X105.611 Y112.126 E1.0123
G1 X105.176 Y111.968 E1.0200
G1 X104.917 Y111.899 E1.0245
G1 X104.401 Y111.821 E1.0331
G1 X101.523 Y111.702 E1.0810
G1 X101.309 Y111.605 E1.0849
G1 X98.240 Y108.341 E1.1594
G1 X98.156 Y108.121 E1.1634
G1 X98.289 Y101.596 E1.2719
G1 X98.386 Y101.376 E1.2759
G1 X98.720 Y101.611 F4800
G92 E0
G1 X101.916 Y98.568 E0.0734 F840
G1 X101.990 Y98.539 E0.0747
G1 X105.018 Y98.626 E0.1251
G1 X105.022 Y98.626 E0.1251
G1 X105.241 Y98.641 E0.1288
G1 X105.245 Y98.642 E0.1289
G1 X106.754 Y98.811 E0.1541
G1 X106.759 Y98.811 E0.1542
G1 X107.021 Y98.854 E0.1586
G1 X107.026 Y98.855 E0.1587
G1 X108.255 Y99.119 E0.1796
G1 X108.259 Y99.120 E0.1797
G1 X108.443 Y99.167 E0.1828
G1 X108.447 Y99.168 E0.1829
G1 X109.143 Y99.370 E0.1950
G1 X109.147 Y99.372 E0.1950
G1 X109.348 Y99.439 E0.1986
G1 X109.352 Y99.441 E0.1986
G1 X110.970 Y100.056 E0.2274
G1 X110.974 Y100.058 E0.2275
G1 X111.185 Y100.149 E0.2313
G1 X111.189 Y100.151 E0.2314
G1 X112.087 Y100.584 E0.2480
G1 X112.091 Y100.587 E0.2480
G1 X112.307 Y100.704 E0.2521
G1 X112.311 Y100.706 E0.2522
G1 X113.739 Y101.569 E0.2800
G1 X113.744 Y101.571 E0.2800
G1 X113.983 Y101.734 E0.2848
G1 X113.987 Y101.737 E0.2849
G1 X115.041 Y102.542 E0.3070
G1 X115.045 Y102.545 E0.3071
G1 X115.255 Y102.724 E0.3117
G1 X115.259 Y102.727 E0.3117
G1 X116.541 Y103.937 E0.3411
G1 X116.544 Y103.940 E0.3411
G1 X116.704 Y104.105 E0.3450
G1 X116.707 Y104.108 E0.3450
G1 X117.370 Y104.852 E0.3616
G1 X117.373 Y104.856 E0.3617
G1 X117.528 Y105.047 E0.3658
G1 X117.531 Y105.051 E0.3659
G1 X118.520 Y106.394 E0.3936
G1 X118.524 Y106.398 E0.3937
G1 X118.682 Y106.640 E0.3985
G1 X118.685 Y106.645 E0.3986
G1 X119.350 Y107.791 E0.4206
G1 X119.353 Y107.796 E0.4207
G1 X119.479 Y108.041 E0.4253
G1 X119.481 Y108.046 E0.4254
G1 X120.203 Y109.654 E0.4547
G1 X120.204 Y109.658 E0.4548
G1 X120.289 Y109.872 E0.4586
G1 X120.291 Y109.876 E0.4587
G1 X120.618 Y110.817 E0.4752
G1 X120.620 Y110.822 E0.4753
G1 X120.690 Y111.058 E0.4794
G1 X120.691 Y111.062 E0.4795
G1 X121.091 Y112.682 E0.5072
G1 X121.093 Y112.687 E0.5073
G1 X121.147 Y112.972 E0.5122
G1 X121.147 Y112.978 E0.5122
G1 X121.321 Y114.280 E0.5341
G1 X121.322 Y114.285 E0.5342
G1 X121.343 Y114.520 E0.5381
G1 X121.343 Y114.524 E0.5382
G1 X121.491 Y117.910 E0.5945
G1 X121.463 Y117.985 E0.5959
G1 X118.456 Y121.229 E0.6694
G1 X118.383 Y121.263 E0.6708
G1 X111.997 Y121.466 E0.7770
G1 X111.924 Y121.439 E0.7783
G1 X108.732 Y118.478 E0.8507
G1 X108.699 Y118.407 E0.8520
G1 X108.574 Y115.507 E0.9003
G1 X108.527 Y115.159 E0.9061
G1 X108.451 Y114.828 E0.9118
G1 X108.319 Y114.429 E0.9188
G1 X108.020 Y113.764 E0.9309
G1 X107.861 Y113.491 E0.9362
G1 X107.690 Y113.250 E0.9411
G1 X107.216 Y112.720 E0.9529
G1 X106.887 Y112.418 E0.9603
G1 X106.642 Y112.231 E0.9654
G1 X106.157 Y111.939 E0.9748
G1 X105.763 Y111.756 E0.9821
G1 X105.296 Y111.586 E0.9903
G1 X104.998 Y111.507 E0.9955
G1 X104.439 Y111.422 E1.0049
G1 X101.618 Y111.306 E1.0518
G1 X101.547 Y111.273 E1.0531
G1 X98.586 Y108.124 E1.1250
G1 X98.558 Y108.051 E1.1263
G1 X98.688 Y101.684 E1.2322
G1 X98.720 Y101.611 E1.2336
G92 E0
G1 E-10.0000 F6000
G1 Z0.390 F1002
; inner perimeter
G1 X104.233 Y104.202 F4800
G1 X104.200 Y105.812 F4800
G1 X104.972 Y105.844 F4800
G1 X105.713 Y105.940 F4800
G1 X106.136 Y106.020 F4800
G1 X106.558 Y106.121 F4800
G1 X106.976 Y106.242 F4800
G1 X107.899 Y106.579 F4800
G1 X108.202 Y106.707 F4800
G1 X108.786 Y106.990 F4800
G1 X109.432 Y107.361 F4800
G1 X109.793 Y107.597 F4800
G1 X110.144 Y107.851 F4800
G1 X110.483 Y108.123 F4800
G1 X111.203 Y108.783 F4800
G1 X111.660 Y109.265 F4800
G1 X112.071 Y109.756 F4800
G1 X112.567 Y110.452 F4800
G1 X112.794 Y110.823 F4800
G1 X113.003 Y111.202 F4800
G1 X113.218 Y111.643 F4800
G1 X113.541 Y112.398 F4800
G1 X113.755 Y113.011 F4800
G1 X113.846 Y113.321 F4800
G1 X114.038 Y114.152 F4800
G1 X114.106 Y114.582 F4800
G1 X114.154 Y115.014 F4800
G1 X114.154 Y115.016 F4800
G1 X114.574 Y115.381 F4800
G1 Z0.090 F1002
G1 E0.0000 F6000
G92 E0
G1 X114.557 Y114.983 E0.0066 F630
G1 X114.507 Y114.528 E0.0142
G1 X114.435 Y114.075 E0.0219
G1 X114.237 Y113.219 E0.0365
G1 X114.140 Y112.887 E0.0422
G1 X113.918 Y112.251 E0.0534
G1 X113.586 Y111.475 E0.0675
G1 X113.362 Y111.016 E0.0760
G1 X113.144 Y110.619 E0.0835
G1 X112.904 Y110.228 E0.0911
G1 X112.390 Y109.508 E0.1058
G1 X111.962 Y108.997 E0.1169
G1 X111.486 Y108.495 E0.1284
G1 X110.746 Y107.816 E0.1451
G1 X110.389 Y107.530 E0.1527
G1 X110.022 Y107.264 E0.1603
G1 X109.643 Y107.016 E0.1678
G1 X108.975 Y106.632 E0.1806
G1 X108.369 Y106.339 E0.1918
G1 X108.048 Y106.203 E0.1976
G1 X107.101 Y105.858 E0.2144
G1 X106.661 Y105.730 E0.2220
G1 X106.221 Y105.625 E0.2295
G1 X105.776 Y105.541 E0.2370
G1 X105.007 Y105.441 E0.2499
G1 X104.612 Y105.425 E0.2565
G1 X104.629 Y104.613 E0.2700
G1 X105.078 Y104.645 E0.2775
G1 X105.926 Y104.755 E0.2917
G1 X106.397 Y104.844 E0.2997
G1 X106.874 Y104.959 E0.3078
G1 X107.344 Y105.096 E0.3160
G1 X108.352 Y105.463 E0.3338
G1 X108.694 Y105.609 E0.3400
G1 X109.345 Y105.923 E0.3520
G1 X110.083 Y106.348 E0.3662
G1 X110.483 Y106.610 E0.3741
