; G-Code generated by Simplify3D(R) Version 4.0.0
; Nov 22, 2019 at 8:24:30 PM
; Settings Summary
;   processName,Process1
;   applyToModels,Handle Test
;   profileName,E3_cat_FFF (modified)
;   profileVersion,2019-11-02 13:49:25
;   baseProfile,Default(2) (modified)
;   printMaterial,
;   printQuality,
;   printExtruders,
;   extruderName,Primary Extruder
;   extruderToolheadNumber,0
;   extruderDiameter,0.4
;   extruderAutoWidth,0
;   extruderWidth,0.4
;   extrusionMultiplier,1
;   extruderUseRetract,1
;   extruderRetractionDistance,10
;   extruderExtraRestartDistance,0
;   extruderRetractionZLift,0.3
;   extruderRetractionSpeed,6000
;   extruderUseCoasting,0
;   extruderCoastingDistance,2
;   extruderUseWipe,0
;   extruderWipeDistance,5
;   primaryExtruder,0
;   layerHeight,0.1
;   topSolidLayers,12
;   bottomSolidLayers,12
;   perimeterOutlines,3
;   printPerimetersInsideOut,1
;   startPointOption,3
;   startPointOriginX,100
;   startPointOriginY,150
;   sequentialIslands,1
;   spiralVaseMode,0
;   firstLayerHeightPercentage,90
;   firstLayerWidthPercentage,100
;   firstLayerUnderspeed,0.5
;   useRaft,0
;   raftExtruder,0
;   raftTopLayers,3
;   raftBaseLayers,2
;   raftOffset,3
;   raftSeparationDistance,0.14
;   raftTopInfill,100
;   aboveRaftSpeedMultiplier,0.3
;   useSkirt,1
;   skirtExtruder,0
;   skirtLayers,1
;   skirtOutlines,3
;   skirtOffset,5.2
;   usePrimePillar,0
;   primePillarExtruder,999
;   primePillarWidth,20
;   primePillarLocation,7
;   primePillarSpeedMultiplier,1
;   useOozeShield,0
;   oozeShieldExtruder,999
;   oozeShieldOffset,2
;   oozeShieldOutlines,1
;   oozeShieldSidewallShape,1
;   oozeShieldSidewallAngle,30
;   oozeShieldSpeedMultiplier,1
;   infillExtruder,0
;   internalInfillPattern,Rectilinear
;   externalInfillPattern,Rectilinear
;   infillPercentage,15
;   outlineOverlapPercentage,30
;   infillExtrusionWidthPercentage,100
;   minInfillLength,5
;   infillLayerInterval,1
;   internalInfillAngles,45,-45
;   overlapInternalInfillAngles,0
;   externalInfillAngles,45,-45
;   generateSupport,1
;   supportExtruder,0
;   supportInfillPercentage,40
;   supportExtraInflation,0
;   supportBaseLayers,0
;   denseSupportExtruder,0
;   denseSupportLayers,0
;   denseSupportInfillPercentage,70
;   supportLayerInterval,1
;   supportHorizontalPartOffset,0.3
;   supportUpperSeparationLayers,1
;   supportLowerSeparationLayers,1
;   supportType,0
;   supportGridSpacing,4
;   maxOverhangAngle,45
;   supportAngles,0
;   temperatureName,Primary Extruder,bed
;   temperatureNumber,0,0
;   temperatureSetpointCount,1,1
;   temperatureSetpointLayers,1,1
;   temperatureSetpointTemperatures,205,65
;   temperatureStabilizeAtStartup,1,1
;   temperatureHeatedBed,0,1
;   temperatureRelayBetweenLayers,0,0
;   temperatureRelayBetweenLoops,0,0
;   fanLayers,1,2
;   fanSpeeds,0,100
;   blipFanToFullPower,0
;   adjustSpeedForCooling,1
;   minSpeedLayerTime,15
;   minCoolingSpeedSlowdown,20
;   increaseFanForCooling,0
;   minFanLayerTime,45
;   maxCoolingFanSpeed,100
;   increaseFanForBridging,0
;   bridgingFanSpeed,100
;   use5D,1
;   relativeEdistances,0
;   allowEaxisZeroing,1
;   independentExtruderAxes,0
;   includeM10123,0
;   stickySupport,1
;   applyToolheadOffsets,0
;   gcodeXoffset,0
;   gcodeYoffset,0
;   gcodeZoffset,0
;   overrideMachineDefinition,1
;   machineTypeOverride,0
;   strokeXoverride,220
;   strokeYoverride,220
;   strokeZoverride,250
;   originOffsetXoverride,0
;   originOffsetYoverride,0
;   originOffsetZoverride,0
;   homeXdirOverride,-1
;   homeYdirOverride,-1
;   homeZdirOverride,-1
;   flipXoverride,1
;   flipYoverride,-1
;   flipZoverride,1
;   toolheadOffsets,0,0|0,0|0,0|0,0|0,0|0,0
;   overrideFirmwareConfiguration,0
;   firmwareTypeOverride,RepRap (Marlin/Repetier/Sprinter)
;   GPXconfigOverride,r2
;   baudRateOverride,115200
;   overridePrinterModels,0
;   printerModelsOverride
;   startingGcode,G28 ; home all axes,G29
;   layerChangeGcode,
;   retractionGcode,
;   toolChangeGcode,
;   endingGcode,M104 S0 ; turn off extruder,M140 S0 ; turn off bed,M84 ; disable motors,G28 X0 Y0
;   exportFileFormat,gcode
;   celebration,0
;   celebrationSong,Funky Town
;   postProcessing,
;   defaultSpeed,4200
;   outlineUnderspeed,0.5
;   solidInfillUnderspeed,0.8
;   supportUnderspeed,0.8
;   rapidXYspeed,4800
;   rapidZspeed,1002
;   minBridgingArea,50
;   bridgingExtraInflation,0
;   bridgingExtrusionMultiplier,1
;   bridgingSpeedMultiplier,1
;   useFixedBridgingAngle,0
;   fixedBridgingAngle,0
;   applyBridgingToPerimeters,0
;   filamentDiameters,1.75|1.75|1.75|1.75|1.75|1.75
;   filamentPricesPerKg,46|46|46|46|46|46
;   filamentDensities,1.25|1.25|1.25|1.25|1.25|1.25
;   useMinPrintHeight,0
;   minPrintHeight,0
;   useMaxPrintHeight,0
;   maxPrintHeight,0
;   useDiaphragm,0
;   diaphragmLayerInterval,20
;   robustSlicing,1
;   mergeAllIntoSolid,0
;   onlyRetractWhenCrossingOutline,1
;   retractBetweenLayers,1
;   useRetractionMinTravel,0
;   retractionMinTravel,3
;   retractWhileWiping,0
;   onlyWipeOutlines,1
;   avoidCrossingOutline,1
;   maxMovementDetourFactor,3
;   toolChangeRetractionDistance,12
;   toolChangeExtraRestartDistance,-0.5
;   toolChangeRetractionSpeed,600
;   externalThinWallType,0
;   internalThinWallType,2
;   thinWallAllowedOverlapPercentage,10
;   singleExtrusionMinLength,1
;   singleExtrusionMinPrintingWidthPercentage,50
;   singleExtrusionMaxPrintingWidthPercentage,200
;   singleExtrusionEndpointExtension,0.2
;   horizontalSizeCompensation,0
G90
M82
M106 S0
M140 S65
M190 S65
M104 S205 T0
M109 S205 T0
G28 ; home all axes
G29
G92 E0
G1 E-10.0000 F6000
G1 Z0.390 F1002
; process Process1
; layer 1, Z = 0.090
T0
; tool H0.100 W0.400
; skirt
G1 X96.885 Y96.670 F4800
G1 Z0.090 F1002
G1 E0.0000 F1800
G92 E0
G1 X96.904 Y96.651 E0.0004 F1621
G1 X97.118 Y96.444 E0.0054
G1 X97.138 Y96.426 E0.0058
G1 X98.332 Y95.388 E0.0321
G1 X98.348 Y95.374 E0.0325
G1 X98.543 Y95.219 E0.0366
G1 X98.560 Y95.206 E0.0370
G1 X99.448 Y94.562 E0.0552
G1 X99.462 Y94.552 E0.0555
G1 X99.627 Y94.441 E0.0588
G1 X99.641 Y94.431 E0.0591
G1 X100.571 Y93.850 E0.0774
G1 X100.590 Y93.839 E0.0777
G1 X100.806 Y93.717 E0.0819
G1 X100.826 Y93.706 E0.0822
G1 X102.213 Y92.999 E0.1081
G1 X102.233 Y92.990 E0.1085
G1 X102.459 Y92.887 E0.1126
G1 X102.479 Y92.878 E0.1130
G1 X103.496 Y92.468 E0.1312
G1 X103.512 Y92.461 E0.1315
G1 X103.699 Y92.393 E0.1348
G1 X103.716 Y92.388 E0.1351
G1 X104.735 Y92.057 E0.1529
G1 X104.751 Y92.051 E0.1532
G1 X104.943 Y91.997 E0.1565
G1 X104.959 Y91.992 E0.1568
G1 X106.023 Y91.727 E0.1750
G1 X106.045 Y91.722 E0.1754
G1 X106.288 Y91.673 E0.1795
G1 X106.310 Y91.669 E0.1799
G1 X107.872 Y91.421 E0.2062
G1 X107.898 Y91.418 E0.2067
G1 X108.195 Y91.387 E0.2116
G1 X108.221 Y91.385 E0.2121
G1 X109.776 Y91.303 E0.2379
G1 X109.794 Y91.303 E0.2382
G1 X109.993 Y91.299 E0.2415
G1 X110.010 Y91.299 E0.2418
G1 X110.621 Y91.310 E0.2520
G1 X110.634 Y91.310 E0.2522
G1 X110.783 Y91.317 E0.2547
G1 X110.796 Y91.318 E0.2549
G1 X111.865 Y91.392 E0.2727
G1 X111.886 Y91.394 E0.2731
G1 X112.133 Y91.423 E0.2772
G1 X112.155 Y91.426 E0.2776
G1 X113.718 Y91.673 E0.3039
G1 X113.743 Y91.678 E0.3043
G1 X114.035 Y91.740 E0.3093
G1 X114.061 Y91.746 E0.3097
G1 X115.613 Y92.162 E0.3365
G1 X115.638 Y92.170 E0.3369
G1 X115.922 Y92.262 E0.3419
G1 X115.947 Y92.271 E0.3423
G1 X117.447 Y92.847 E0.3690
G1 X117.471 Y92.857 E0.3694
G1 X117.744 Y92.978 E0.3744
G1 X117.767 Y92.989 E0.3748
G1 X119.199 Y93.719 E0.4016
G1 X119.222 Y93.731 E0.4020
G1 X119.481 Y93.881 E0.4070
G1 X119.503 Y93.894 E0.4074
G1 X120.830 Y94.756 E0.4337
G1 X120.848 Y94.768 E0.4341
G1 X121.050 Y94.913 E0.4382
G1 X121.068 Y94.926 E0.4386
G1 X121.931 Y95.601 E0.4568
G1 X121.945 Y95.612 E0.4571
G1 X122.097 Y95.740 E0.4604
G1 X122.111 Y95.751 E0.4607
G1 X122.907 Y96.468 E0.4785
G1 X122.920 Y96.480 E0.4788
G1 X123.063 Y96.618 E0.4821
G1 X123.075 Y96.631 E0.4824
G1 X123.819 Y97.402 E0.5002
G1 X123.831 Y97.414 E0.5005
G1 X123.964 Y97.562 E0.5038
G1 X123.976 Y97.575 E0.5041
G1 X124.664 Y98.396 E0.5219
G1 X124.675 Y98.410 E0.5222
G1 X124.798 Y98.567 E0.5255
G1 X124.808 Y98.581 E0.5258
G1 X125.438 Y99.448 E0.5436
G1 X125.448 Y99.462 E0.5439
G1 X125.559 Y99.627 E0.5472
G1 X125.569 Y99.641 E0.5475
G1 X126.150 Y100.571 E0.5658
G1 X126.161 Y100.590 E0.5661
G1 X126.283 Y100.806 E0.5703
G1 X126.294 Y100.826 E0.5706
G1 X127.001 Y102.213 E0.5965
G1 X127.010 Y102.233 E0.5969
G1 X127.113 Y102.459 E0.6010
G1 X127.122 Y102.479 E0.6014
G1 X127.532 Y103.496 E0.6196
G1 X127.539 Y103.512 E0.6199
G1 X127.607 Y103.699 E0.6232
G1 X127.612 Y103.716 E0.6235
G1 X127.951 Y104.758 E0.6417
G1 X127.957 Y104.779 E0.6421
G1 X128.024 Y105.019 E0.6462
G1 X128.029 Y105.040 E0.6466
G1 X128.379 Y106.557 E0.6725
G1 X128.384 Y106.579 E0.6729
G1 X128.429 Y106.823 E0.6770
G1 X128.433 Y106.845 E0.6774
G1 X128.589 Y107.955 E0.6960
G1 X128.591 Y107.977 E0.6964
G1 X128.615 Y108.224 E0.7005
G1 X128.617 Y108.246 E0.7009
G1 X128.699 Y109.826 E0.7272
G1 X128.700 Y109.852 E0.7276
G1 X128.700 Y110.151 E0.7326
G1 X128.699 Y110.177 E0.7330
G1 X128.615 Y111.782 E0.7597
G1 X128.613 Y111.808 E0.7602
G1 X128.582 Y112.105 E0.7651
G1 X128.578 Y112.131 E0.7656
G1 X128.331 Y113.693 E0.7919
G1 X128.327 Y113.715 E0.7922
G1 X128.277 Y113.958 E0.7964
G1 X128.272 Y113.980 E0.7967
G1 X128.001 Y115.067 E0.8154
G1 X127.995 Y115.089 E0.8157
G1 X127.925 Y115.327 E0.8199
G1 X127.918 Y115.348 E0.8202
G1 X127.403 Y116.844 E0.8466
G1 X127.394 Y116.868 E0.8470
G1 X127.282 Y117.145 E0.8520
G1 X127.271 Y117.169 E0.8524
G1 X126.592 Y118.625 E0.8791
G1 X126.580 Y118.649 E0.8796
G1 X126.440 Y118.912 E0.8845
G1 X126.427 Y118.935 E0.8850
G1 X125.613 Y120.291 E0.9113
G1 X125.601 Y120.309 E0.9116
G1 X125.464 Y120.517 E0.9158
G1 X125.451 Y120.535 E0.9161
G1 X124.792 Y121.442 E0.9348
G1 X124.779 Y121.459 E0.9351
G1 X124.624 Y121.654 E0.9393
G1 X124.610 Y121.671 E0.9396
G1 X123.572 Y122.864 E0.9659
G1 X123.554 Y122.884 E0.9664
G1 X123.347 Y123.099 E0.9713
G1 X123.328 Y123.117 E0.9718
G1 X122.153 Y124.213 E0.9985
G1 X122.133 Y124.230 E0.9989
G1 X121.905 Y124.422 E1.0039
G1 X121.884 Y124.438 E1.0043
G1 X120.621 Y125.390 E1.0306
G1 X120.603 Y125.403 E1.0310
G1 X120.398 Y125.544 E1.0351
G1 X120.380 Y125.556 E1.0355
G1 X119.429 Y126.150 E1.0542
G1 X119.410 Y126.161 E1.0545
G1 X119.194 Y126.283 E1.0587
G1 X119.174 Y126.294 E1.0590
G1 X117.765 Y127.012 E1.0853
G1 X117.741 Y127.023 E1.0858
G1 X117.468 Y127.145 E1.0907
G1 X117.444 Y127.155 E1.0912
G1 X115.944 Y127.730 E1.1179
G1 X115.919 Y127.739 E1.1183
G1 X115.635 Y127.831 E1.1233
G1 X115.610 Y127.839 E1.1237
G1 X114.058 Y128.255 E1.1504
G1 X114.032 Y128.261 E1.1509
G1 X113.741 Y128.323 E1.1558
G1 X113.715 Y128.327 E1.1563
G1 X112.128 Y128.579 E1.1830
G1 X112.102 Y128.582 E1.1834
G1 X111.805 Y128.613 E1.1884
G1 X111.779 Y128.615 E1.1888
G1 X110.174 Y128.699 E1.2156
G1 X110.148 Y128.700 E1.2160
G1 X109.849 Y128.700 E1.2210
G1 X109.823 Y128.699 E1.2214
G1 X108.218 Y128.615 E1.2481
G1 X108.192 Y128.613 E1.2485
G1 X107.895 Y128.582 E1.2535
G1 X107.869 Y128.578 E1.2539
G1 X106.307 Y128.331 E1.2803
G1 X106.285 Y128.327 E1.2806
G1 X106.042 Y128.277 E1.2848
G1 X106.020 Y128.272 E1.2851
G1 X104.933 Y128.001 E1.3038
G1 X104.911 Y127.995 E1.3041
G1 X104.673 Y127.925 E1.3083
G1 X104.652 Y127.918 E1.3086
G1 X103.156 Y127.403 E1.3349
G1 X103.132 Y127.394 E1.3354
G1 X102.855 Y127.282 E1.3403
G1 X102.831 Y127.271 E1.3408
G1 X101.375 Y126.592 E1.3675
G1 X101.351 Y126.580 E1.3679
G1 X101.088 Y126.440 E1.3729
G1 X101.065 Y126.427 E1.3733
G1 X99.709 Y125.613 E1.3996
G1 X99.691 Y125.601 E1.4000
G1 X99.483 Y125.464 E1.4041
G1 X99.465 Y125.451 E1.4045
G1 X98.558 Y124.792 E1.4231
G1 X98.541 Y124.779 E1.4235
G1 X98.346 Y124.624 E1.4276
G1 X98.329 Y124.610 E1.4280
G1 X97.136 Y123.572 E1.4543
G1 X97.116 Y123.554 E1.4548
G1 X96.901 Y123.347 E1.4597
G1 X96.883 Y123.328 E1.4602
G1 X95.787 Y122.153 E1.4869
G1 X95.770 Y122.133 E1.4873
G1 X95.578 Y121.905 E1.4923
G1 X95.562 Y121.884 E1.4927
G1 X94.610 Y120.621 E1.5190
G1 X94.597 Y120.603 E1.5194
G1 X94.456 Y120.398 E1.5235
G1 X94.444 Y120.380 E1.5239
G1 X93.850 Y119.429 E1.5425
G1 X93.839 Y119.410 E1.5429
G1 X93.717 Y119.194 E1.5470
G1 X93.706 Y119.174 E1.5474
G1 X92.988 Y117.765 E1.5737
G1 X92.977 Y117.741 E1.5741
G1 X92.855 Y117.468 E1.5791
G1 X92.845 Y117.444 E1.5795
G1 X92.270 Y115.944 E1.6063
G1 X92.261 Y115.919 E1.6067
G1 X92.169 Y115.635 E1.6117
G1 X92.161 Y115.610 E1.6121
G1 X91.745 Y114.058 E1.6388
G1 X91.739 Y114.032 E1.6393
G1 X91.677 Y113.741 E1.6442
G1 X91.673 Y113.715 E1.6447
G1 X91.421 Y112.128 E1.6714
G1 X91.418 Y112.102 E1.6718
G1 X91.387 Y111.805 E1.6768
G1 X91.385 Y111.779 E1.6772
G1 X91.301 Y110.174 E1.7039
G1 X91.300 Y110.148 E1.7044
G1 X91.300 Y109.849 E1.7093
G1 X91.301 Y109.823 E1.7098
G1 X91.385 Y108.218 E1.7365
G1 X91.387 Y108.192 E1.7369
G1 X91.418 Y107.895 E1.7419
G1 X91.422 Y107.869 E1.7423
G1 X91.669 Y106.307 E1.7686
G1 X91.673 Y106.285 E1.7690
G1 X91.723 Y106.042 E1.7731
G1 X91.728 Y106.020 E1.7735
G1 X91.993 Y104.957 E1.7917
G1 X91.997 Y104.940 E1.7920
G1 X92.052 Y104.749 E1.7953
G1 X92.057 Y104.732 E1.7956
G1 X92.389 Y103.713 E1.8134
G1 X92.394 Y103.696 E1.8137
G1 X92.462 Y103.509 E1.8170
G1 X92.469 Y103.493 E1.8173
G1 X92.879 Y102.477 E1.8356
G1 X92.888 Y102.457 E1.8359
G1 X92.991 Y102.230 E1.8401
G1 X93.001 Y102.211 E1.8404
G1 X93.708 Y100.823 E1.8663
G1 X93.718 Y100.804 E1.8667
G1 X93.840 Y100.587 E1.8708
G1 X93.852 Y100.569 E1.8712
G1 X94.446 Y99.618 E1.8898
G1 X94.458 Y99.600 E1.8902
G1 X94.599 Y99.395 E1.8943
G1 X94.612 Y99.377 E1.8947
G1 X95.564 Y98.114 E1.9210
G1 X95.580 Y98.093 E1.9214
G1 X95.772 Y97.864 E1.9264
G1 X95.789 Y97.845 E1.9268
G1 X96.885 Y96.670 E1.9536
G1 X97.174 Y96.946 F4800
G92 E0
G1 X97.185 Y96.935 E0.0003 F1621
G1 X97.392 Y96.735 E0.0051
G1 X97.404 Y96.724 E0.0053
G1 X98.591 Y95.693 E0.0315
G1 X98.601 Y95.685 E0.0317
G1 X98.789 Y95.535 E0.0357
G1 X98.799 Y95.527 E0.0359
G1 X99.680 Y94.888 E0.0540
G1 X99.688 Y94.882 E0.0542
G1 X99.848 Y94.774 E0.0574
G1 X99.856 Y94.768 E0.0575
G1 X100.779 Y94.192 E0.0756
G1 X100.791 Y94.185 E0.0759
G1 X101.000 Y94.067 E0.0798
G1 X101.011 Y94.061 E0.0801
G1 X102.391 Y93.358 E0.1058
G1 X102.403 Y93.352 E0.1060
G1 X102.621 Y93.253 E0.1100
G1 X102.633 Y93.247 E0.1102
G1 X103.642 Y92.840 E0.1283
G1 X103.652 Y92.836 E0.1285
G1 X103.833 Y92.770 E0.1317
G1 X103.843 Y92.767 E0.1319
G1 X104.855 Y92.438 E0.1496
G1 X104.865 Y92.435 E0.1498
G1 X105.049 Y92.382 E0.1530
G1 X105.060 Y92.379 E0.1531
G1 X106.116 Y92.116 E0.1712
G1 X106.129 Y92.113 E0.1714
G1 X106.364 Y92.065 E0.1754
G1 X106.377 Y92.063 E0.1757
G1 X107.930 Y91.817 E0.2018
G1 X107.945 Y91.815 E0.2021
G1 X108.232 Y91.785 E0.2069
G1 X108.247 Y91.784 E0.2071
G1 X109.794 Y91.703 E0.2329
G1 X109.804 Y91.703 E0.2330
G1 X109.996 Y91.699 E0.2362
G1 X110.007 Y91.699 E0.2364
G1 X110.611 Y91.710 E0.2465
G1 X110.619 Y91.710 E0.2466
G1 X110.763 Y91.716 E0.2490
G1 X110.770 Y91.717 E0.2491
G1 X111.832 Y91.791 E0.2668
G1 X111.845 Y91.792 E0.2670
G1 X112.084 Y91.820 E0.2710
G1 X112.097 Y91.821 E0.2712
G1 X113.650 Y92.067 E0.2974
G1 X113.665 Y92.070 E0.2977
G1 X113.947 Y92.130 E0.3024
G1 X113.962 Y92.134 E0.3027
G1 X115.504 Y92.547 E0.3293
G1 X115.519 Y92.552 E0.3295
G1 X115.793 Y92.641 E0.3343
G1 X115.808 Y92.646 E0.3346
G1 X117.298 Y93.218 E0.3611
G1 X117.313 Y93.224 E0.3614
G1 X117.576 Y93.341 E0.3662
G1 X117.590 Y93.348 E0.3664
G1 X119.013 Y94.073 E0.3930
G1 X119.027 Y94.080 E0.3932
G1 X119.276 Y94.224 E0.3980
G1 X119.289 Y94.233 E0.3983
G1 X120.608 Y95.089 E0.4244
G1 X120.619 Y95.097 E0.4247
G1 X120.814 Y95.236 E0.4286
G1 X120.825 Y95.244 E0.4289
G1 X121.682 Y95.914 E0.4470
G1 X121.691 Y95.921 E0.4471
G1 X121.838 Y96.044 E0.4503
G1 X121.846 Y96.051 E0.4505
G1 X122.637 Y96.763 E0.4682
G1 X122.644 Y96.770 E0.4684
G1 X122.782 Y96.904 E0.4716
G1 X122.790 Y96.911 E0.4718
G1 X123.529 Y97.677 E0.4895
G1 X123.536 Y97.685 E0.4896
G1 X123.665 Y97.827 E0.4928
G1 X123.672 Y97.835 E0.4930
G1 X124.356 Y98.651 E0.5107
G1 X124.362 Y98.659 E0.5109
G1 X124.481 Y98.810 E0.5141
G1 X124.487 Y98.819 E0.5142
G1 X125.112 Y99.680 E0.5319
G1 X125.118 Y99.688 E0.5321
