; G-Code generated by Simplify3D(R) Version 4.0.0
; Nov 30, 2019 at 6:40:26 PM
; Settings Summary
;   processName,Process1
;   applyToModels,M3 Allen Bolt Nut Test Fit
;   profileName,E3_cat_FFF (modified)
;   profileVersion,2019-11-02 13:49:25
;   baseProfile,Default(2) (modified)
;   printMaterial,
;   printQuality,
;   printExtruders,
;   extruderName,Primary Extruder
;   extruderToolheadNumber,0
;   extruderDiameter,0.4
;   extruderAutoWidth,0
;   extruderWidth,0.4
;   extrusionMultiplier,1
;   extruderUseRetract,1
;   extruderRetractionDistance,10
;   extruderExtraRestartDistance,0
;   extruderRetractionZLift,0.3
;   extruderRetractionSpeed,6000
;   extruderUseCoasting,0
;   extruderCoastingDistance,2
;   extruderUseWipe,0
;   extruderWipeDistance,5
;   primaryExtruder,0
;   layerHeight,0.1
;   topSolidLayers,12
;   bottomSolidLayers,12
;   perimeterOutlines,3
;   printPerimetersInsideOut,1
;   startPointOption,3
;   startPointOriginX,100
;   startPointOriginY,150
;   sequentialIslands,1
;   spiralVaseMode,0
;   firstLayerHeightPercentage,90
;   firstLayerWidthPercentage,100
;   firstLayerUnderspeed,0.5
;   useRaft,1
;   raftExtruder,0
;   raftTopLayers,3
;   raftBaseLayers,2
;   raftOffset,3
;   raftSeparationDistance,0.14
;   raftTopInfill,100
;   aboveRaftSpeedMultiplier,0.3
;   useSkirt,1
;   skirtExtruder,0
;   skirtLayers,1
;   skirtOutlines,3
;   skirtOffset,5.2
;   usePrimePillar,0
;   primePillarExtruder,999
;   primePillarWidth,20
;   primePillarLocation,7
;   primePillarSpeedMultiplier,1
;   useOozeShield,0
;   oozeShieldExtruder,999
;   oozeShieldOffset,2
;   oozeShieldOutlines,1
;   oozeShieldSidewallShape,1
;   oozeShieldSidewallAngle,30
;   oozeShieldSpeedMultiplier,1
;   infillExtruder,0
;   internalInfillPattern,Fast Honeycomb
;   externalInfillPattern,Rectilinear
;   infillPercentage,35
;   outlineOverlapPercentage,30
;   infillExtrusionWidthPercentage,100
;   minInfillLength,5
;   infillLayerInterval,1
;   internalInfillAngles,0
;   overlapInternalInfillAngles,0
;   externalInfillAngles,45,-45
;   generateSupport,1
;   supportExtruder,0
;   supportInfillPercentage,40
;   supportExtraInflation,0
;   supportBaseLayers,0
;   denseSupportExtruder,0
;   denseSupportLayers,0
;   denseSupportInfillPercentage,70
;   supportLayerInterval,1
;   supportHorizontalPartOffset,0.3
;   supportUpperSeparationLayers,1
;   supportLowerSeparationLayers,1
;   supportType,0
;   supportGridSpacing,4
;   maxOverhangAngle,45
;   supportAngles,0
;   temperatureName,Primary Extruder,bed
;   temperatureNumber,0,0
;   temperatureSetpointCount,1,1
;   temperatureSetpointLayers,1,1
;   temperatureSetpointTemperatures,205,65
;   temperatureStabilizeAtStartup,1,1
;   temperatureHeatedBed,0,1
;   temperatureRelayBetweenLayers,0,0
;   temperatureRelayBetweenLoops,0,0
;   fanLayers,1,2
;   fanSpeeds,0,100
;   blipFanToFullPower,0
;   adjustSpeedForCooling,1
;   minSpeedLayerTime,15
;   minCoolingSpeedSlowdown,20
;   increaseFanForCooling,0
;   minFanLayerTime,45
;   maxCoolingFanSpeed,100
;   increaseFanForBridging,0
;   bridgingFanSpeed,100
;   use5D,1
;   relativeEdistances,0
;   allowEaxisZeroing,1
;   independentExtruderAxes,0
;   includeM10123,0
;   stickySupport,1
;   applyToolheadOffsets,0
;   gcodeXoffset,0
;   gcodeYoffset,0
;   gcodeZoffset,0
;   overrideMachineDefinition,1
;   machineTypeOverride,0
;   strokeXoverride,220
;   strokeYoverride,220
;   strokeZoverride,250
;   originOffsetXoverride,0
;   originOffsetYoverride,0
;   originOffsetZoverride,0
;   homeXdirOverride,-1
;   homeYdirOverride,-1
;   homeZdirOverride,-1
;   flipXoverride,1
;   flipYoverride,-1
;   flipZoverride,1
;   toolheadOffsets,0,0|0,0|0,0|0,0|0,0|0,0
;   overrideFirmwareConfiguration,0
;   firmwareTypeOverride,RepRap (Marlin/Repetier/Sprinter)
;   GPXconfigOverride,r2
;   baudRateOverride,115200
;   overridePrinterModels,0
;   printerModelsOverride
;   startingGcode,G28 ; home all axes,G29
;   layerChangeGcode,
;   retractionGcode,
;   toolChangeGcode,
;   endingGcode,M104 S0 ; turn off extruder,M140 S0 ; turn off bed,M84 ; disable motors,G28 X0 Y0
;   exportFileFormat,gcode
;   celebration,0
;   celebrationSong,Funky Town
;   postProcessing,
;   defaultSpeed,4200
;   outlineUnderspeed,0.5
;   solidInfillUnderspeed,0.8
;   supportUnderspeed,0.8
;   rapidXYspeed,4800
;   rapidZspeed,1002
;   minBridgingArea,50
;   bridgingExtraInflation,0
;   bridgingExtrusionMultiplier,1
;   bridgingSpeedMultiplier,1
;   useFixedBridgingAngle,0
;   fixedBridgingAngle,0
;   applyBridgingToPerimeters,0
;   filamentDiameters,1.75|1.75|1.75|1.75|1.75|1.75
;   filamentPricesPerKg,46|46|46|46|46|46
;   filamentDensities,1.25|1.25|1.25|1.25|1.25|1.25
;   useMinPrintHeight,0
;   minPrintHeight,0
;   useMaxPrintHeight,0
;   maxPrintHeight,0
;   useDiaphragm,0
;   diaphragmLayerInterval,20
;   robustSlicing,1
;   mergeAllIntoSolid,0
;   onlyRetractWhenCrossingOutline,1
;   retractBetweenLayers,1
;   useRetractionMinTravel,0
;   retractionMinTravel,3
;   retractWhileWiping,0
;   onlyWipeOutlines,1
;   avoidCrossingOutline,1
;   maxMovementDetourFactor,3
;   toolChangeRetractionDistance,12
;   toolChangeExtraRestartDistance,-0.5
;   toolChangeRetractionSpeed,600
;   externalThinWallType,0
;   internalThinWallType,2
;   thinWallAllowedOverlapPercentage,10
;   singleExtrusionMinLength,1
;   singleExtrusionMinPrintingWidthPercentage,50
;   singleExtrusionMaxPrintingWidthPercentage,200
;   singleExtrusionEndpointExtension,0.2
;   horizontalSizeCompensation,0
G90
M82
M106 S0
M140 S65
M190 S65
M104 S205 T0
M109 S205 T0
G28 ; home all axes
G29
G92 E0
G1 E-10.0000 F6000
G1 Z0.750 F1002
; process Process1
; layer 1, Z = 0.450
T0
; tool H0.500 W0.400
; skirt
G1 X95.953 Y101.038 F4800
G1 Z0.450 F1002
G1 E0.0000 F1800
G92 E0
G1 X101.038 Y95.953 E0.5979 F2100
G1 X101.406 Y95.801 E0.6310
G1 X118.594 Y95.801 E2.0603
G1 X118.962 Y95.953 E2.0934
G1 X124.047 Y101.038 E2.6913
G1 X124.199 Y101.406 E2.7244
G1 X124.199 Y118.594 E4.1536
G1 X124.047 Y118.962 E4.1867
G1 X118.962 Y124.047 E4.7846
G1 X118.594 Y124.199 E4.8177
G1 X101.406 Y124.199 E6.2470
G1 X101.038 Y124.047 E6.2801
G1 X95.953 Y118.962 E6.8780
G1 X95.801 Y118.594 E6.9111
G1 X95.801 Y101.406 E8.3403
G1 X95.953 Y101.038 E8.3734
G92 E0
G1 E-10.0000 F6000
G1 Z0.750 F1002
G1 X96.292 Y101.265 F4800
G1 Z0.450 F1002
G1 E0.0000 F6000
G92 E0
G1 X101.265 Y96.292 E0.5847 F2100
G1 X101.485 Y96.201 E0.6045
G1 X118.515 Y96.201 E2.0206
G1 X118.735 Y96.292 E2.0404
G1 X123.708 Y101.265 E2.6251
G1 X123.799 Y101.485 E2.6450
G1 X123.799 Y118.515 E4.0610
G1 X123.708 Y118.735 E4.0809
G1 X118.735 Y123.708 E4.6655
G1 X118.515 Y123.799 E4.6854
G1 X101.485 Y123.799 E6.1014
G1 X101.265 Y123.708 E6.1213
G1 X96.292 Y118.735 E6.7060
G1 X96.201 Y118.515 E6.7258
G1 X96.201 Y101.485 E8.1419
G1 X96.292 Y101.265 E8.1617
G92 E0
G1 E-10.0000 F6000
G1 Z0.750 F1002
G1 X96.631 Y101.491 F4800
G1 Z0.450 F1002
G1 E0.0000 F6000
G92 E0
G1 X101.491 Y96.631 E0.5715 F2100
G1 X101.565 Y96.601 E0.5781
G1 X118.435 Y96.601 E1.9809
G1 X118.509 Y96.631 E1.9875
G1 X123.369 Y101.491 E2.5590
G1 X123.399 Y101.565 E2.5656
G1 X123.399 Y118.435 E3.9684
G1 X123.369 Y118.509 E3.9750
G1 X118.509 Y123.369 E4.5465
G1 X118.435 Y123.399 E4.5531
G1 X101.565 Y123.399 E5.9559
G1 X101.491 Y123.369 E5.9625
G1 X96.631 Y118.509 E6.5340
G1 X96.601 Y118.435 E6.5406
G1 X96.601 Y101.565 E7.9434
G1 X96.631 Y101.491 E7.9500
G92 E0
G1 E-10.0000 F6000
G1 Z0.750 F1002
; tool H0.500 W0.800
; raft
G1 X102.401 Y103.924 F4800
G1 Z0.450 F1002
G1 E0.0000 F6000
G92 E0
G1 X103.924 Y102.401 E0.3582 F525
G1 X116.076 Y102.401 E2.3791
G1 X117.599 Y103.924 E2.7373
G1 X117.599 Y116.076 E4.7581
G1 X116.076 Y117.599 E5.1163
G1 X103.924 Y117.599 E7.1372
G1 X102.401 Y116.076 E7.4954
G1 X102.401 Y103.924 E9.5163
G92 E0
G1 E-10.0000 F6000
G1 Z0.750 F1002
G1 X103.201 Y105.429 F4800
G1 Z0.450 F1002
G1 E0.0000 F6000
G92 E0
G1 X116.799 Y105.429 E2.2614 F525
G1 X116.799 Y107.714 E2.6415
G1 X103.201 Y107.714 E4.9028
G1 X103.201 Y110.000 E5.2829
G1 X116.799 Y110.000 E7.5443
G1 X116.799 Y112.286 E7.9244
G1 X103.201 Y112.286 E10.1858
G1 X103.201 Y114.571 E10.5659
G1 X116.799 Y114.571 E12.8273
G92 E0
G1 E-10.0000 F6000
G1 Z1.250 F1002
; layer 2, Z = 0.950
M106 S255
G1 X117.599 Y116.076 F4800
G1 Z0.950 F1002
G1 E0.0000 F6000
G92 E0
G1 X116.076 Y117.599 E0.3582 F1050
G1 X103.924 Y117.599 E2.3791
G1 X102.401 Y116.076 E2.7373
G1 X102.401 Y103.924 E4.7581
G1 X103.924 Y102.401 E5.1163
G1 X116.076 Y102.401 E7.1372
G1 X117.599 Y103.924 E7.4954
G1 X117.599 Y116.076 E9.5163
G92 E0
G1 E-10.0000 F6000
G1 Z1.250 F1002
G1 X116.799 Y114.571 F4800
G1 Z0.950 F1002
G1 E0.0000 F6000
G92 E0
G1 X103.201 Y114.571 E2.2614 F1050
G1 X103.201 Y112.286 E2.6415
G1 X116.799 Y112.286 E4.9028
G1 X116.799 Y110.000 E5.2829
G1 X103.201 Y110.000 E7.5443
G1 X103.201 Y107.714 E7.9244
G1 X116.799 Y107.714 E10.1858
G1 X116.799 Y105.429 E10.5659
G1 X103.201 Y105.429 E12.8273
G92 E0
G1 E-10.0000 F6000
G1 Z1.472 F1002
; layer 3, Z = 1.172
; tool H0.222 W0.400
G1 X102.201 Y104.223 F4800
G1 Z1.172 F1002
G1 E0.0000 F6000
G92 E0
G1 X104.223 Y102.201 E0.1057 F3150
G1 X104.788 Y102.201 E0.1266
G1 X102.201 Y104.788 E0.2618
G1 X102.201 Y105.354 E0.2827
G1 X105.354 Y102.201 E0.4475
G1 X105.920 Y102.201 E0.4684
G1 X102.201 Y105.920 E0.6627
G1 X102.201 Y106.485 E0.6836
G1 X106.485 Y102.201 E0.9075
G1 X107.051 Y102.201 E0.9285
G1 X102.201 Y107.051 E1.1819
G1 X102.201 Y107.617 E1.2028
G1 X107.617 Y102.201 E1.4859
G1 X108.182 Y102.201 E1.5068
G1 X102.201 Y108.182 E1.8194
G1 X102.201 Y108.748 E1.8403
G1 X108.748 Y102.201 E2.1825
G1 X109.314 Y102.201 E2.2034
G1 X102.201 Y109.314 E2.5751
G1 X102.201 Y109.879 E2.5960
G1 X109.879 Y102.201 E2.9973
G1 X110.445 Y102.201 E3.0182
G1 X102.201 Y110.445 E3.4491
G1 X102.201 Y111.011 E3.4700
G1 X111.011 Y102.201 E3.9304
G1 X111.577 Y102.201 E3.9513
G1 X102.201 Y111.577 E4.4413
G1 X102.201 Y112.142 E4.4622
G1 X112.142 Y102.201 E4.9818
G1 X112.708 Y102.201 E5.0027
G1 X102.201 Y112.708 E5.5518
G1 X102.201 Y113.274 E5.5727
G1 X113.274 Y102.201 E6.1514
G1 X113.839 Y102.201 E6.1723
G1 X102.201 Y113.839 E6.7806
G1 X102.201 Y114.405 E6.8015
G1 X114.405 Y102.201 E7.4393
G1 X114.971 Y102.201 E7.4602
G1 X102.201 Y114.971 E8.1276
G1 X102.201 Y115.536 E8.1485
G1 X115.536 Y102.201 E8.8454
G1 X116.102 Y102.201 E8.8663
G1 X102.201 Y116.102 E9.5929
G1 X102.201 Y116.159 E9.5950
G1 X102.455 Y116.413 E9.6082
G1 X116.413 Y102.455 E10.3377
G1 X116.696 Y102.738 E10.3525
G1 X102.738 Y116.696 E11.0820
G1 X103.021 Y116.979 E11.0968
G1 X116.979 Y103.021 E11.8263
G1 X117.262 Y103.304 E11.8410
G1 X103.304 Y117.262 E12.5705
G1 X103.587 Y117.545 E12.5853
G1 X117.545 Y103.587 E13.3148
G1 X117.799 Y103.841 E13.3281
G1 X117.799 Y103.898 E13.3302
G1 X103.898 Y117.799 E14.0567
G1 X104.464 Y117.799 E14.0776
G1 X117.799 Y104.464 E14.7745
G1 X117.799 Y105.029 E14.7954
G1 X105.029 Y117.799 E15.4628
G1 X105.595 Y117.799 E15.4837
G1 X117.799 Y105.595 E16.1215
G1 X117.799 Y106.161 E16.1424
G1 X106.161 Y117.799 E16.7507
G1 X106.727 Y117.799 E16.7716
G1 X117.799 Y106.727 E17.3503
G1 X117.799 Y107.292 E17.3712
G1 X107.292 Y117.799 E17.9203
G1 X107.858 Y117.799 E17.9412
G1 X117.799 Y107.858 E18.4608
G1 X117.799 Y108.424 E18.4817
G1 X108.424 Y117.799 E18.9717
G1 X108.989 Y117.799 E18.9926
G1 X117.799 Y108.989 E19.4530
G1 X117.799 Y109.555 E19.4739
G1 X109.555 Y117.799 E19.9048
G1 X110.121 Y117.799 E19.9257
G1 X117.799 Y110.121 E20.3270
G1 X117.799 Y110.686 E20.3479
G1 X110.686 Y117.799 E20.7196
G1 X111.252 Y117.799 E20.7405
G1 X117.799 Y111.252 E21.0827
G1 X117.799 Y111.818 E21.1036
G1 X111.818 Y117.799 E21.4162
G1 X112.383 Y117.799 E21.4371
G1 X117.799 Y112.383 E21.7201
G1 X117.799 Y112.949 E21.7410
G1 X112.949 Y117.799 E21.9945
G1 X113.515 Y117.799 E22.0154
G1 X117.799 Y113.515 E22.2393
G1 X117.799 Y114.080 E22.2602
G1 X114.080 Y117.799 E22.4546
G1 X114.646 Y117.799 E22.4755
G1 X117.799 Y114.646 E22.6402
G1 X117.799 Y115.212 E22.6612
G1 X115.212 Y117.799 E22.7964
G1 X115.777 Y117.799 E22.8173
G1 X117.799 Y115.777 E22.9229
G92 E0
G1 E-10.0000 F6000
G1 Z1.694 F1002
; layer 4, Z = 1.394
G1 X104.223 Y117.799 F4800
G1 Z1.394 F1002
G1 E0.0000 F6000
G92 E0
G1 X102.201 Y115.777 E0.1057 F3150
G1 X102.201 Y115.212 E0.1266
G1 X104.788 Y117.799 E0.2618
G1 X105.354 Y117.799 E0.2827
G1 X102.201 Y114.646 E0.4475
G1 X102.201 Y114.080 E0.4684
G1 X105.920 Y117.799 E0.6627
G1 X106.485 Y117.799 E0.6836
G1 X102.201 Y113.515 E0.9075
G1 X102.201 Y112.949 E0.9284
G1 X107.051 Y117.799 E1.1819
G1 X107.617 Y117.799 E1.2028
G1 X102.201 Y112.383 E1.4859
G1 X102.201 Y111.818 E1.5068
G1 X108.182 Y117.799 E1.8194
G1 X108.748 Y117.799 E1.8403
G1 X102.201 Y111.252 E2.1825
G1 X102.201 Y110.686 E2.2034
G1 X109.314 Y117.799 E2.5751
G1 X109.879 Y117.799 E2.5960
G1 X102.201 Y110.121 E2.9973
G1 X102.201 Y109.555 E3.0182
G1 X110.445 Y117.799 E3.4491
G1 X111.011 Y117.799 E3.4700
G1 X102.201 Y108.989 E3.9304
G1 X102.201 Y108.424 E3.9513
G1 X111.576 Y117.799 E4.4413
G1 X112.142 Y117.799 E4.4622
G1 X102.201 Y107.858 E4.9818
G1 X102.201 Y107.292 E5.0027
G1 X112.708 Y117.799 E5.5518
G1 X113.274 Y117.799 E5.5727
G1 X102.201 Y106.726 E6.1514
G1 X102.201 Y106.161 E6.1723
G1 X113.839 Y117.799 E6.7805
G1 X114.405 Y117.799 E6.8014
G1 X102.201 Y105.595 E7.4393
G1 X102.201 Y105.029 E7.4602
G1 X114.971 Y117.799 E8.1275
G1 X115.536 Y117.799 E8.1484
G1 X102.201 Y104.464 E8.8454
G1 X102.201 Y103.898 E8.8663
G1 X116.102 Y117.799 E9.5928
G1 X116.159 Y117.799 E9.5949
G1 X116.413 Y117.545 E9.6082
G1 X102.455 Y103.587 E10.3377
G1 X102.738 Y103.304 E10.3525
G1 X116.696 Y117.262 E11.0820
G1 X116.979 Y116.979 E11.0967
G1 X103.021 Y103.021 E11.8262
G1 X103.304 Y102.738 E11.8410
G1 X117.262 Y116.696 E12.5705
G1 X117.545 Y116.413 E12.5853
G1 X103.587 Y102.455 E13.3147
G1 X103.841 Y102.201 E13.3280
G1 X103.898 Y102.201 E13.3301
G1 X117.799 Y116.102 E14.0566
G1 X117.799 Y115.536 E14.0776
G1 X104.464 Y102.201 E14.7745
G1 X105.029 Y102.201 E14.7954
G1 X117.799 Y114.971 E15.4628
G1 X117.799 Y114.405 E15.4837
G1 X105.595 Y102.201 E16.1215
G1 X106.161 Y102.201 E16.1424
G1 X117.799 Y113.839 E16.7507
G1 X117.799 Y113.274 E16.7716
G1 X106.726 Y102.201 E17.3502
G1 X107.292 Y102.201 E17.3712
G1 X117.799 Y112.708 E17.9203
G1 X117.799 Y112.142 E17.9412
G1 X107.858 Y102.201 E18.4607
G1 X108.424 Y102.201 E18.4816
G1 X117.799 Y111.576 E18.9716
G1 X117.799 Y111.011 E18.9925
G1 X108.989 Y102.201 E19.4530
G1 X109.555 Y102.201 E19.4739
G1 X117.799 Y110.445 E19.9047
G1 X117.799 Y109.879 E19.9256
G1 X110.121 Y102.201 E20.3269
G1 X110.686 Y102.201 E20.3478
G1 X117.799 Y109.314 E20.7196
G1 X117.799 Y108.748 E20.7405
G1 X111.252 Y102.201 E21.0827
G1 X111.818 Y102.201 E21.1036
G1 X117.799 Y108.182 E21.4162
G1 X117.799 Y107.617 E21.4371
G1 X112.383 Y102.201 E21.7201
G1 X112.949 Y102.201 E21.7410
G1 X117.799 Y107.051 E21.9945
G1 X117.799 Y106.485 E22.0154
G1 X113.515 Y102.201 E22.2393
G1 X114.080 Y102.201 E22.2602
G1 X117.799 Y105.920 E22.4546
G1 X117.799 Y105.354 E22.4755
G1 X114.646 Y102.201 E22.6402
G1 X115.212 Y102.201 E22.6611
G1 X117.799 Y104.788 E22.7964
G1 X117.799 Y104.223 E22.8173
G1 X115.777 Y102.201 E22.9229
G92 E0
G1 E-10.0000 F6000
G1 Z1.917 F1002
; layer 5, Z = 1.617
G1 X102.201 Y104.223 F4800
G1 Z1.617 F1002
G1 E0.0000 F6000
G92 E0
G1 X104.223 Y102.201 E0.1057 F3150
G1 X104.788 Y102.201 E0.1266
G1 X102.201 Y104.788 E0.2618
G1 X102.201 Y105.354 E0.2827
G1 X105.354 Y102.201 E0.4475
G1 X105.920 Y102.201 E0.4684
G1 X102.201 Y105.920 E0.6627
G1 X102.201 Y106.485 E0.6836
G1 X106.485 Y102.201 E0.9075
G1 X107.051 Y102.201 E0.9285
G1 X102.201 Y107.051 E1.1819
G1 X102.201 Y107.617 E1.2028
G1 X107.617 Y102.201 E1.4859
G1 X108.182 Y102.201 E1.5068
G1 X102.201 Y108.182 E1.8194
G1 X102.201 Y108.748 E1.8403
G1 X108.748 Y102.201 E2.1825
G1 X109.314 Y102.201 E2.2034
G1 X102.201 Y109.314 E2.5751
G1 X102.201 Y109.879 E2.5960
G1 X109.879 Y102.201 E2.9973
G1 X110.445 Y102.201 E3.0182
G1 X102.201 Y110.445 E3.4491
G1 X102.201 Y111.011 E3.4700
G1 X111.011 Y102.201 E3.9304
G1 X111.577 Y102.201 E3.9513
G1 X102.201 Y111.577 E4.4413
G1 X102.201 Y112.142 E4.4622
G1 X112.142 Y102.201 E4.9818
