; G-Code generated by Simplify3D(R) Version 4.0.0
; Nov 21, 2019 at 8:32:33 PM
; Settings Summary
;   processName,Process1
;   applyToModels,Stepper Motor Indicator
;   profileName,E3_cat_FFF (modified)
;   profileVersion,2019-11-02 13:49:25
;   baseProfile,Default(2) (modified)
;   printMaterial,
;   printQuality,
;   printExtruders,
;   extruderName,Primary Extruder
;   extruderToolheadNumber,0
;   extruderDiameter,0.4
;   extruderAutoWidth,0
;   extruderWidth,0.4
;   extrusionMultiplier,1
;   extruderUseRetract,1
;   extruderRetractionDistance,10
;   extruderExtraRestartDistance,0
;   extruderRetractionZLift,0.3
;   extruderRetractionSpeed,6000
;   extruderUseCoasting,0
;   extruderCoastingDistance,2
;   extruderUseWipe,0
;   extruderWipeDistance,5
;   primaryExtruder,0
;   layerHeight,0.1
;   topSolidLayers,12
;   bottomSolidLayers,12
;   perimeterOutlines,3
;   printPerimetersInsideOut,1
;   startPointOption,3
;   startPointOriginX,100
;   startPointOriginY,150
;   sequentialIslands,1
;   spiralVaseMode,0
;   firstLayerHeightPercentage,90
;   firstLayerWidthPercentage,100
;   firstLayerUnderspeed,0.5
;   useRaft,0
;   raftExtruder,0
;   raftTopLayers,3
;   raftBaseLayers,2
;   raftOffset,3
;   raftSeparationDistance,0.14
;   raftTopInfill,100
;   aboveRaftSpeedMultiplier,0.3
;   useSkirt,1
;   skirtExtruder,0
;   skirtLayers,1
;   skirtOutlines,3
;   skirtOffset,5.2
;   usePrimePillar,0
;   primePillarExtruder,999
;   primePillarWidth,20
;   primePillarLocation,7
;   primePillarSpeedMultiplier,1
;   useOozeShield,0
;   oozeShieldExtruder,999
;   oozeShieldOffset,2
;   oozeShieldOutlines,1
;   oozeShieldSidewallShape,1
;   oozeShieldSidewallAngle,30
;   oozeShieldSpeedMultiplier,1
;   infillExtruder,0
;   internalInfillPattern,Rectilinear
;   externalInfillPattern,Rectilinear
;   infillPercentage,15
;   outlineOverlapPercentage,30
;   infillExtrusionWidthPercentage,100
;   minInfillLength,5
;   infillLayerInterval,1
;   internalInfillAngles,45,-45
;   overlapInternalInfillAngles,0
;   externalInfillAngles,45,-45
;   generateSupport,1
;   supportExtruder,0
;   supportInfillPercentage,40
;   supportExtraInflation,0
;   supportBaseLayers,0
;   denseSupportExtruder,0
;   denseSupportLayers,0
;   denseSupportInfillPercentage,70
;   supportLayerInterval,1
;   supportHorizontalPartOffset,0.3
;   supportUpperSeparationLayers,1
;   supportLowerSeparationLayers,1
;   supportType,0
;   supportGridSpacing,4
;   maxOverhangAngle,45
;   supportAngles,0
;   temperatureName,Primary Extruder,bed
;   temperatureNumber,0,0
;   temperatureSetpointCount,1,1
;   temperatureSetpointLayers,1,1
;   temperatureSetpointTemperatures,205,65
;   temperatureStabilizeAtStartup,1,1
;   temperatureHeatedBed,0,1
;   temperatureRelayBetweenLayers,0,0
;   temperatureRelayBetweenLoops,0,0
;   fanLayers,1,2
;   fanSpeeds,0,100
;   blipFanToFullPower,0
;   adjustSpeedForCooling,1
;   minSpeedLayerTime,15
;   minCoolingSpeedSlowdown,20
;   increaseFanForCooling,0
;   minFanLayerTime,45
;   maxCoolingFanSpeed,100
;   increaseFanForBridging,0
;   bridgingFanSpeed,100
;   use5D,1
;   relativeEdistances,0
;   allowEaxisZeroing,1
;   independentExtruderAxes,0
;   includeM10123,0
;   stickySupport,1
;   applyToolheadOffsets,0
;   gcodeXoffset,0
;   gcodeYoffset,0
;   gcodeZoffset,0
;   overrideMachineDefinition,1
;   machineTypeOverride,0
;   strokeXoverride,220
;   strokeYoverride,220
;   strokeZoverride,250
;   originOffsetXoverride,0
;   originOffsetYoverride,0
;   originOffsetZoverride,0
;   homeXdirOverride,-1
;   homeYdirOverride,-1
;   homeZdirOverride,-1
;   flipXoverride,1
;   flipYoverride,-1
;   flipZoverride,1
;   toolheadOffsets,0,0|0,0|0,0|0,0|0,0|0,0
;   overrideFirmwareConfiguration,0
;   firmwareTypeOverride,RepRap (Marlin/Repetier/Sprinter)
;   GPXconfigOverride,r2
;   baudRateOverride,115200
;   overridePrinterModels,0
;   printerModelsOverride
;   startingGcode,G28 ; home all axes,G29
;   layerChangeGcode,
;   retractionGcode,
;   toolChangeGcode,
;   endingGcode,M104 S0 ; turn off extruder,M140 S0 ; turn off bed,M84 ; disable motors,G28 X0 Y0
;   exportFileFormat,gcode
;   celebration,0
;   celebrationSong,Funky Town
;   postProcessing,
;   defaultSpeed,4200
;   outlineUnderspeed,0.5
;   solidInfillUnderspeed,0.8
;   supportUnderspeed,0.8
;   rapidXYspeed,4800
;   rapidZspeed,1002
;   minBridgingArea,50
;   bridgingExtraInflation,0
;   bridgingExtrusionMultiplier,1
;   bridgingSpeedMultiplier,1
;   useFixedBridgingAngle,0
;   fixedBridgingAngle,0
;   applyBridgingToPerimeters,0
;   filamentDiameters,1.75|1.75|1.75|1.75|1.75|1.75
;   filamentPricesPerKg,46|46|46|46|46|46
;   filamentDensities,1.25|1.25|1.25|1.25|1.25|1.25
;   useMinPrintHeight,0
;   minPrintHeight,0
;   useMaxPrintHeight,0
;   maxPrintHeight,0
;   useDiaphragm,0
;   diaphragmLayerInterval,20
;   robustSlicing,1
;   mergeAllIntoSolid,0
;   onlyRetractWhenCrossingOutline,1
;   retractBetweenLayers,1
;   useRetractionMinTravel,0
;   retractionMinTravel,3
;   retractWhileWiping,0
;   onlyWipeOutlines,1
;   avoidCrossingOutline,1
;   maxMovementDetourFactor,3
;   toolChangeRetractionDistance,12
;   toolChangeExtraRestartDistance,-0.5
;   toolChangeRetractionSpeed,600
;   externalThinWallType,0
;   internalThinWallType,2
;   thinWallAllowedOverlapPercentage,10
;   singleExtrusionMinLength,1
;   singleExtrusionMinPrintingWidthPercentage,50
;   singleExtrusionMaxPrintingWidthPercentage,200
;   singleExtrusionEndpointExtension,0.2
;   horizontalSizeCompensation,0
G90
M82
M106 S0
M140 S65
M190 S65
M104 S205 T0
M109 S205 T0
G28 ; home all axes
G29
G92 E0
G1 E-10.0000 F6000
G1 Z0.390 F1002
; process Process1
; layer 1, Z = 0.090
T0
; tool H0.100 W0.400
; skirt
G1 X92.496 Y101.609 F4800
G1 Z0.090 F1002
G1 E0.0000 F1800
G92 E0
G1 X106.731 Y101.609 E0.2367 F2100
G1 X107.268 Y100.947 E0.2509
G1 X107.282 Y100.930 E0.2513
G1 X107.448 Y100.743 E0.2554
G1 X107.463 Y100.727 E0.2558
G1 X108.000 Y100.172 E0.2686
G1 X108.015 Y100.158 E0.2690
G1 X108.189 Y99.992 E0.2730
G1 X108.205 Y99.978 E0.2733
G1 X109.024 Y99.264 E0.2914
G1 X109.048 Y99.244 E0.2919
G1 X109.331 Y99.027 E0.2978
G1 X109.356 Y99.009 E0.2984
G1 X110.541 Y98.212 E0.3221
G1 X110.570 Y98.194 E0.3227
G1 X110.911 Y97.997 E0.3292
G1 X110.941 Y97.981 E0.3298
G1 X112.223 Y97.356 E0.3535
G1 X112.251 Y97.343 E0.3540
G1 X112.577 Y97.208 E0.3599
G1 X112.606 Y97.197 E0.3604
G1 X113.633 Y96.845 E0.3785
G1 X113.653 Y96.838 E0.3788
G1 X113.884 Y96.770 E0.3828
G1 X113.905 Y96.764 E0.3832
G1 X114.654 Y96.576 E0.3960
G1 X114.675 Y96.572 E0.3964
G1 X114.922 Y96.521 E0.4006
G1 X114.943 Y96.517 E0.4009
G1 X115.973 Y96.354 E0.4183
G1 X115.995 Y96.351 E0.4186
G1 X116.248 Y96.322 E0.4229
G1 X116.271 Y96.320 E0.4233
G1 X117.046 Y96.267 E0.4362
G1 X117.068 Y96.266 E0.4365
G1 X117.313 Y96.260 E0.4406
G1 X117.334 Y96.260 E0.4410
G1 X118.369 Y96.278 E0.4582
G1 X118.390 Y96.279 E0.4585
G1 X118.633 Y96.294 E0.4626
G1 X118.654 Y96.296 E0.4629
G1 X119.425 Y96.375 E0.4758
G1 X119.448 Y96.378 E0.4762
G1 X119.702 Y96.416 E0.4805
G1 X119.724 Y96.420 E0.4809
G1 X120.769 Y96.625 E0.4986
G1 X120.794 Y96.631 E0.4990
G1 X121.076 Y96.701 E0.5038
G1 X121.101 Y96.708 E0.5042
G1 X122.140 Y97.024 E0.5223
G1 X122.165 Y97.032 E0.5227
G1 X122.449 Y97.135 E0.5278
G1 X122.473 Y97.145 E0.5282
G1 X123.478 Y97.572 E0.5464
G1 X123.502 Y97.583 E0.5468
G1 X123.775 Y97.716 E0.5519
G1 X123.799 Y97.728 E0.5523
G1 X124.728 Y98.246 E0.5700
G1 X124.747 Y98.256 E0.5703
G1 X124.954 Y98.384 E0.5744
G1 X124.972 Y98.396 E0.5747
G1 X125.590 Y98.812 E0.5871
G1 X125.604 Y98.822 E0.5874
G1 X125.762 Y98.937 E0.5907
G1 X125.775 Y98.947 E0.5909
G1 X126.367 Y99.408 E0.6034
G1 X126.384 Y99.422 E0.6038
G1 X126.575 Y99.584 E0.6080
G1 X126.591 Y99.599 E0.6083
G1 X127.371 Y100.325 E0.6260
G1 X127.390 Y100.343 E0.6265
G1 X127.599 Y100.560 E0.6315
G1 X127.617 Y100.580 E0.6319
G1 X128.332 Y101.402 E0.6501
G1 X128.349 Y101.423 E0.6505
G1 X128.533 Y101.659 E0.6555
G1 X128.548 Y101.680 E0.6559
G1 X129.156 Y102.548 E0.6735
G1 X129.168 Y102.566 E0.6739
G1 X129.299 Y102.772 E0.6780
G1 X129.311 Y102.791 E0.6783
G1 X129.700 Y103.464 E0.6913
G1 X129.711 Y103.484 E0.6916
G1 X129.830 Y103.713 E0.6959
G1 X129.840 Y103.734 E0.6963
G1 X130.287 Y104.698 E0.7140
G1 X130.297 Y104.721 E0.7144
G1 X130.405 Y104.989 E0.7192
G1 X130.414 Y105.013 E0.7196
G1 X130.761 Y106.016 E0.7373
G1 X130.768 Y106.037 E0.7376
G1 X130.839 Y106.278 E0.7418
G1 X130.845 Y106.299 E0.7422
G1 X131.034 Y107.058 E0.7552
G1 X131.039 Y107.080 E0.7556
G1 X131.090 Y107.331 E0.7598
G1 X131.094 Y107.353 E0.7602
G1 X131.262 Y108.428 E0.7783
G1 X131.265 Y108.457 E0.7788
G1 X131.297 Y108.795 E0.7844
G1 X131.299 Y108.825 E0.7849
G1 X131.348 Y110.201 E0.8078
G1 X131.349 Y110.228 E0.8083
G1 X131.343 Y110.537 E0.8134
G1 X131.342 Y110.564 E0.8139
G1 X131.283 Y111.360 E0.8271
G1 X131.282 Y111.380 E0.8275
G1 X131.255 Y111.615 E0.8314
G1 X131.252 Y111.635 E0.8317
G1 X131.092 Y112.657 E0.8489
G1 X131.088 Y112.679 E0.8493
G1 X131.037 Y112.930 E0.8536
G1 X131.032 Y112.952 E0.8539
G1 X130.842 Y113.708 E0.8669
G1 X130.837 Y113.729 E0.8673
G1 X130.765 Y113.969 E0.8714
G1 X130.758 Y113.990 E0.8718
G1 X130.412 Y114.990 E0.8894
G1 X130.404 Y115.014 E0.8898
G1 X130.296 Y115.281 E0.8946
G1 X130.286 Y115.304 E0.8950
G1 X129.838 Y116.268 E0.9127
G1 X129.828 Y116.288 E0.9131
G1 X129.709 Y116.518 E0.9174
G1 X129.698 Y116.537 E0.9178
G1 X129.308 Y117.211 E0.9307
G1 X129.297 Y117.229 E0.9311
G1 X129.166 Y117.435 E0.9351
G1 X129.154 Y117.453 E0.9355
G1 X128.546 Y118.322 E0.9531
G1 X128.530 Y118.343 E0.9535
G1 X128.346 Y118.579 E0.9585
G1 X128.329 Y118.599 E0.9590
G1 X127.614 Y119.421 E0.9771
G1 X127.596 Y119.441 E0.9775
G1 X127.387 Y119.657 E0.9825
G1 X127.368 Y119.676 E0.9830
G1 X126.554 Y120.434 E1.0015
G1 X126.531 Y120.453 E1.0020
G1 X126.266 Y120.672 E1.0077
G1 X126.242 Y120.690 E1.0082
G1 X125.109 Y121.515 E1.0315
G1 X125.083 Y121.532 E1.0320
G1 X124.787 Y121.721 E1.0379
G1 X124.760 Y121.737 E1.0384
G1 X123.786 Y122.276 E1.0569
G1 X123.763 Y122.288 E1.0573
G1 X123.495 Y122.419 E1.0623
G1 X123.471 Y122.429 E1.0627
G1 X122.473 Y122.853 E1.0807
G1 X122.449 Y122.862 E1.0812
G1 X122.171 Y122.963 E1.0861
G1 X122.147 Y122.972 E1.0865
G1 X121.104 Y123.291 E1.1046
G1 X121.079 Y123.298 E1.1051
G1 X120.783 Y123.372 E1.1101
G1 X120.757 Y123.378 E1.1106
G1 X119.663 Y123.589 E1.1291
G1 X119.633 Y123.594 E1.1296
G1 X119.293 Y123.639 E1.1353
G1 X119.263 Y123.642 E1.1358
G1 X117.868 Y123.740 E1.1591
G1 X117.837 Y123.741 E1.1596
G1 X117.485 Y123.744 E1.1655
G1 X117.454 Y123.744 E1.1660
G1 X116.316 Y123.683 E1.1849
G1 X116.286 Y123.680 E1.1854
G1 X115.944 Y123.641 E1.1912
G1 X115.914 Y123.637 E1.1917
G1 X114.558 Y123.399 E1.2146
G1 X114.532 Y123.393 E1.2150
G1 X114.235 Y123.324 E1.2201
G1 X114.209 Y123.318 E1.2205
G1 X113.438 Y123.095 E1.2339
G1 X113.417 Y123.089 E1.2342
G1 X113.184 Y123.010 E1.2383
G1 X113.163 Y123.003 E1.2387
G1 X112.196 Y122.630 E1.2559
G1 X112.176 Y122.622 E1.2563
G1 X111.951 Y122.524 E1.2604
G1 X111.931 Y122.515 E1.2607
G1 X111.262 Y122.189 E1.2731
G1 X111.247 Y122.181 E1.2734
G1 X111.076 Y122.090 E1.2766
G1 X111.061 Y122.082 E1.2769
G1 X110.410 Y121.708 E1.2894
G1 X110.391 Y121.697 E1.2897
G1 X110.175 Y121.559 E1.2940
G1 X110.156 Y121.547 E1.2944
G1 X109.280 Y120.933 E1.3122
G1 X109.259 Y120.917 E1.3126
G1 X109.021 Y120.731 E1.3176
G1 X109.000 Y120.714 E1.3181
G1 X108.202 Y120.017 E1.3357
G1 X108.186 Y120.003 E1.3360
G1 X108.012 Y119.838 E1.3400
G1 X107.997 Y119.823 E1.3404
G1 X107.460 Y119.268 E1.3532
G1 X107.445 Y119.252 E1.3536
G1 X107.279 Y119.065 E1.3578
G1 X107.265 Y119.048 E1.3581
G1 X106.724 Y118.381 E1.3724
G1 X92.496 Y118.381 E1.6090
G1 X92.129 Y118.229 E1.6156
G1 X88.801 Y114.901 E1.6939
G1 X88.649 Y114.534 E1.7005
G1 X88.649 Y105.456 E1.8515
G1 X88.801 Y105.089 E1.8581
G1 X92.129 Y101.761 E1.9363
G1 X92.496 Y101.609 E1.9429
G1 X92.576 Y102.009 F4800
G92 E0
G1 X106.921 Y102.009 E0.2386 F2100
G1 X107.576 Y101.202 E0.2558
G1 X107.584 Y101.192 E0.2561
G1 X107.745 Y101.011 E0.2601
G1 X107.753 Y101.002 E0.2603
G1 X108.284 Y100.454 E0.2730
G1 X108.293 Y100.445 E0.2732
G1 X108.462 Y100.285 E0.2771
G1 X108.471 Y100.277 E0.2773
G1 X109.282 Y99.569 E0.2952
G1 X109.297 Y99.558 E0.2955
G1 X109.569 Y99.348 E0.3012
G1 X109.584 Y99.337 E0.3015
G1 X110.759 Y98.548 E0.3250
G1 X110.776 Y98.537 E0.3254
G1 X111.105 Y98.347 E0.3317
G1 X111.123 Y98.338 E0.3320
G1 X112.393 Y97.718 E0.3555
G1 X112.409 Y97.710 E0.3558
G1 X112.724 Y97.580 E0.3615
G1 X112.741 Y97.574 E0.3618
G1 X113.758 Y97.225 E0.3797
G1 X113.771 Y97.221 E0.3799
G1 X113.994 Y97.155 E0.3838
G1 X114.006 Y97.151 E0.3840
G1 X114.747 Y96.966 E0.3967
G1 X114.760 Y96.963 E0.3969
G1 X114.997 Y96.914 E0.4009
G1 X115.011 Y96.912 E0.4012
G1 X116.032 Y96.749 E0.4183
G1 X116.045 Y96.748 E0.4186
G1 X116.289 Y96.720 E0.4227
G1 X116.302 Y96.719 E0.4229
G1 X117.069 Y96.666 E0.4357
G1 X117.082 Y96.666 E0.4359
G1 X117.318 Y96.660 E0.4398
G1 X117.331 Y96.660 E0.4400
G1 X118.357 Y96.678 E0.4571
G1 X118.370 Y96.679 E0.4573
G1 X118.604 Y96.693 E0.4612
G1 X118.617 Y96.694 E0.4614
G1 X119.379 Y96.773 E0.4742
G1 X119.393 Y96.775 E0.4744
G1 X119.639 Y96.811 E0.4785
G1 X119.652 Y96.814 E0.4787
G1 X120.687 Y97.017 E0.4963
G1 X120.702 Y97.020 E0.4965
G1 X120.974 Y97.088 E0.5012
G1 X120.989 Y97.092 E0.5015
G1 X122.018 Y97.405 E0.5194
G1 X122.033 Y97.410 E0.5196
G1 X122.307 Y97.510 E0.5245
G1 X122.322 Y97.515 E0.5247
G1 X123.317 Y97.938 E0.5427
G1 X123.331 Y97.944 E0.5430
G1 X123.595 Y98.073 E0.5478
G1 X123.609 Y98.081 E0.5481
G1 X124.530 Y98.593 E0.5656
G1 X124.541 Y98.600 E0.5658
G1 X124.741 Y98.723 E0.5698
G1 X124.752 Y98.730 E0.5700
G1 X125.363 Y99.142 E0.5822
G1 X125.372 Y99.148 E0.5824
G1 X125.524 Y99.258 E0.5855
G1 X125.532 Y99.265 E0.5857
G1 X126.118 Y99.721 E0.5980
G1 X126.128 Y99.729 E0.5983
G1 X126.312 Y99.886 E0.6023
G1 X126.322 Y99.895 E0.6025
G1 X127.094 Y100.614 E0.6201
G1 X127.106 Y100.625 E0.6203
G1 X127.308 Y100.834 E0.6252
G1 X127.319 Y100.846 E0.6254
G1 X128.027 Y101.661 E0.6434
G1 X128.037 Y101.673 E0.6436
G1 X128.214 Y101.901 E0.6484
G1 X128.224 Y101.913 E0.6487
G1 X128.826 Y102.774 E0.6662
G1 X128.833 Y102.785 E0.6664
G1 X128.960 Y102.984 E0.6703
G1 X128.966 Y102.995 E0.6705
G1 X129.352 Y103.661 E0.6833
G1 X129.358 Y103.673 E0.6835
G1 X129.473 Y103.894 E0.6877
G1 X129.479 Y103.906 E0.6879
G1 X129.922 Y104.861 E0.7054
G1 X129.928 Y104.875 E0.7057
G1 X130.033 Y105.134 E0.7103
G1 X130.038 Y105.148 E0.7106
G1 X130.381 Y106.143 E0.7281
G1 X130.385 Y106.155 E0.7283
G1 X130.454 Y106.387 E0.7323
G1 X130.458 Y106.400 E0.7325
G1 X130.645 Y107.150 E0.7454
G1 X130.648 Y107.163 E0.7456
G1 X130.697 Y107.406 E0.7497
G1 X130.699 Y107.419 E0.7500
G1 X130.865 Y108.483 E0.7679
G1 X130.868 Y108.501 E0.7682
G1 X130.899 Y108.827 E0.7736
G1 X130.900 Y108.845 E0.7739
G1 X130.948 Y110.210 E0.7966
G1 X130.949 Y110.226 E0.7969
G1 X130.943 Y110.524 E0.8019
G1 X130.942 Y110.541 E0.8021
G1 X130.885 Y111.327 E0.8152
G1 X130.884 Y111.339 E0.8154
G1 X130.858 Y111.565 E0.8192
G1 X130.856 Y111.577 E0.8194
G1 X130.697 Y112.591 E0.8365
G1 X130.695 Y112.604 E0.8367
G1 X130.646 Y112.846 E0.8408
G1 X130.643 Y112.859 E0.8410
G1 X130.455 Y113.607 E0.8539
G1 X130.452 Y113.620 E0.8541
G1 X130.383 Y113.851 E0.8581
G1 X130.379 Y113.864 E0.8583
G1 X130.036 Y114.854 E0.8757
G1 X130.031 Y114.869 E0.8760
G1 X129.927 Y115.127 E0.8806
G1 X129.921 Y115.140 E0.8809
G1 X129.478 Y116.096 E0.8984
G1 X129.472 Y116.108 E0.8986
G1 X129.356 Y116.329 E0.9028
G1 X129.350 Y116.341 E0.9030
G1 X128.964 Y117.007 E0.9158
G1 X128.958 Y117.018 E0.9160
G1 X128.831 Y117.216 E0.9199
G1 X128.824 Y117.227 E0.9201
G1 X128.221 Y118.088 E0.9376
G1 X128.212 Y118.101 E0.9379
G1 X128.034 Y118.328 E0.9427
G1 X128.024 Y118.340 E0.9429
G1 X127.316 Y119.155 E0.9609
G1 X127.305 Y119.167 E0.9611
G1 X127.103 Y119.376 E0.9660
G1 X127.092 Y119.387 E0.9662
G1 X126.286 Y120.137 E0.9846
G1 X126.272 Y120.149 E0.9849
G1 X126.016 Y120.359 E0.9904
G1 X126.002 Y120.370 E0.9907
G1 X124.879 Y121.188 E1.0138
G1 X124.863 Y121.198 E1.0141
G1 X124.577 Y121.381 E1.0197
G1 X124.561 Y121.390 E1.0200
